X:1
T:Symphony No. 3 in E-flat Major
T:"Eroica" First Movement
T:Ludwig van Beethoven
T:Adp. from arrangements by Ernst Pauer and Franz Liszt
%%score { ( 1 4 5 ) | ( 2 3 ) }
L:1/8
Q:1/4=132
M:3/4
K:Eb
V:1 treble nm="Piano"
V:4 treble 
V:5 treble 
V:2 bass 
V:3 bass 
V:1
!ff!"^Allegro con brio" [egbe']2 z2 z2 | [egbe']2 z2 z2 |!ppp! [B,G][B,G][B,G][B,G][B,G][B,G] | %3
 [B,G][B,G][B,G][B,G][B,G][B,G] | [B,G][B,G][B,G][B,G]GG | [B,G][B,G][B,G][B,G][B,G][B,G] | %6
 [B,G]!pp! g2 g2 g- | g!p! g2 g2!mp! g |!mf! g6 |!f!!>(! [Aa]6-!>)! | [Aa]4!mp! [Gg]2 | %11
!<(! [Fcef]2!mf! [GBeg]2 [Aea]2 | [eg]4 [Bb]2!<)! |!f! [Bb]2 [cc']2 [dd']2 |!mp! [ee']4 [gg']2 | %15
 [ee']4 [Bb]2 | [ee']2 [Gg]2 [Bb]2 | [Ee]2 z2 [=E=e]2 | [Ff]2 [Aa]2 [cc']2 | [Ff]2 z2 [Gg]2 | %20
 [Aa]2!mp! [cc']2 [ee']2 |!<(! z2 e2!mf! e2!<)! |!f! [Bdb]4 [df]2!p! | [Bd]2 [FB]2 [A,DA]2 | %24
 .[B,EG]2!f! e2 .=A2 | =a2 .=A2 a2 | b4 [df]2 | [Bd]2 [FB]2 [B,DFB]2- | [B,DFB] z d2 .B2 | %29
 f2 .B2 [Bdfb]2- | [Bdfb]2 e2 .B2 | g2 .B2 [Begb]2- | [Begb]2 .[B,DFB]2 [Bdfb]2- | %33
 [Bdfb]2 .[B,EGB]2 [Begb]2 | .[Bdab] z [Bd]/b/[ce]/c'/ [df]/d'/[eg]/e'/ | %35
!8va(! [fa]/f'/[gb]/g'/[ac']/a'/[bd']/b'/[c'e']/c''/[d'f']/d''/ | %36
 [e'g'e'']!8va)!!p! [eg]/e'/ [eg]/e'/[eg]/e'/ [eg]/e'/[eg]/e'/ | %37
 [eg]/e'/[eg]/e'/[eg]/e'/[eg]/e'/[eg]/e'/[eg]/e'/ | %38
 [eg]/e'/[eg]/e'/[eg]/e'/[eg]/e'/[eg]/e'/[eg]/e'/ | %39
 [eg]/e'/[eg]/e'/ [egb]/e'/[egb]/e'/ [eg=b]/e'/[egb]/e'/ | %40
 [egc']/e'/[egc']/e'/ [egc']/e'/[egc']/e'/ [egc']/e'/[egc']/e'/ | %41
 [egc']/e'/[egc']/e'/ [egc']/e'/[egc']/e'/ [eg_d']/e'/[egd']/e'/ | %42
!<(! [eac']/e'/[eac']/e'/ [eac']/e'/!mp![eac']/e'/ [eac']/e'/[eac']/e'/ | %43
 [=ec']/=e'/[eb]/e'/ [e=a]/e'/!mf![eb]/e'/ [ec']/e'/[eb]/!<)!e'/ |!f! [f=af'] z!mp! g3!p! f | %45
 =e2!mp! f3!p! _e | c2!mp! e'3!p! c' | =a2!mp! c'3!p! e | d2!mp! g3!p! f | =e2!mp! f3!p! d | %50
 [DB]2!mp! d'3!p! b | f2!mp!!<(! b3!p! d | e2!f! _g3!mf! f | e2!f! [_G_g]3!mf! [Ff]!<)! | %54
 [Ee]2!ff! [=G=g]3 [Ff] |!f! .[Ee]2 .[Dd]2 .[Cc]2 | B6 | B6 | B2 f2 f2 | %59
 .[Fcef]2 .[Fcef]2 .[Fcef]2 |!p! [FBdf]!<(! [DBd][C=Ac][DBd]!mp![Ece][Fdf] | %61
 [Geg][=Af=a].[Bgb].[Bb]!mf!.[Bb].[Bb] | .[Bb] .[Bdb].[=Ac=a]!f!.[Bdb].[cac'].[dbd'] | %63
 .[ec'e'].[ec'e'].[ec'e'].[ec'e'].[ec'e'].[ec'e']!<)! | [ec'e']c'/d'/ .c'=a/b/ .ae/f/ | %65
 ec/d/ .c=A/B/ .A.[d=ac'e'] | .[dbd']b/c'/ .[dgb]g/=a/ .gd/e/ | .dB/c/ .BG/=A/ .G.[GBg] | %68
 .[_A=B_a]A/_B/ .AF/G/ .FD/E/ | .Dd/e/ .d=B/c/ .B.[ABda] | .[Gcg]G/A/ .G.[_Bcg].[=Ac=a].[Acd] | %71
 .[Bdb]B/c/ .B.[_deb].[cec'].[cef] | .[=df=d'].d .[dbd'].d .[ebe'].e | %73
 .[eb=e'].=e .[fbf'].f .[^fb^f'].f | [gbg'] ^f/^f'/ g/g'/f/f'/ g/g'/d/d'/ | %75
 e/e'/d/d'/ f/f'/e/e'/ d/d'/c/c'/ | B/b/F/f/ G/g/=A/=a/ B/b/c/c'/ | %77
 d/d'/e/e'/ =e/=e'/f/f'/ _e/_e'/d/d'/ | [ce=a]/c'/d/d'/ e/e'/d/d'/ c/c'/B/b/ | %79
 =A/=a/B/b/ c/c'/B/b/ A/a/G/g/ | %80
 F/f/[I:staff +1] =E,/[I:staff -1][=E=e]/[I:staff +1]_E,/[I:staff -1][_E_e]/[I:staff +1]D,/[I:staff -1][Dd]/[I:staff +1]C,/[I:staff -1][Cc]/[I:staff +1]B,,/[I:staff -1][B,B]/ | %81
[I:staff +1] =A,,/[I:staff -1][=A,=A]/[I:staff +1]G,,/[I:staff -1][G,G]/ x4 | %82
!f!!>(! z2!p! .[Fd]2 .[Fd]2!>)! |!<(! z2!mp! .f2 .f2!<)! | f2 d'2 d'2 | d'4 c'2 | %86
 z2 .[Ge]2 .[^Ge]2 | .[=Ae]2 .[Af]2 .[Af]2 | f2 ^f2 g2- |!f! g2 =fe f'2- | %90
!<(! f'2!mf! e'_d'!mp!c'b | .[F_d]2!mf! .[_Gde]2 .[Gde]2 | .[_G_de]2 .[Gde_g]2!<)! .[Gdeg]2 | %93
 _d4 c2 | z6 | z2!pp! .[A,=DF]2 .[A,DF]2 | F4 z2 | z2 .[cbc']2 .[bc']2 | %98
 .[=ac']2!pp! .[CE_G=A]2 .[CEGA]2 | z2 .[DFB]2 .[F_A=B]2 | z2 .[F=Ac]2 .[F_Bd]2 | %101
 .[Fce]2 .[Fdf]2 .[=Fd^f]2 | .[eg].[d=f].[ce].[Bd].[=Ac].[Bd] | .[ce].[Bd].[=Ac].[Bd].[ce].[df] | %104
 .[eg].[df].[ce].[Bd].[=Ac].[Bd] | .[ce].[Bd].[=Ac].[Bd].[ce].[df] | %106
!<(! .[eg].[df]!p!.[ce].[=Bd].[ce].[df] | .[eg].[=Af=a].[_Bg_b]!mp!.[cac'].[dbd']!<)!!mf!.[ec'e'] | %108
!f! [fd'f']4 .[dd']2 | .[Bb]2!ff! !tenuto![dbd']2 .[Ff]2 | .[cc']2!ff! !tenuto![ec'e']2 .[Ff]2 | %111
 .[=A=a]2 !tenuto![cfc']2 .[Ff]2 | [fd'f'] z!ff! [Fdf]3 .[Fdf] | .[FBf]2!ff! [Fdf]3 .[Ff] | %114
 .[Fcf]2!ff! [Fef]3 [Ff] | .[F=Af]2!ff! [Fcf]3 [Ff] | [fbf'] ^c/^c'/ d/d'/=A/=a/ B/b/=E/=e/ | %117
 F/f/^C/^c/D/d/ [=A,D=A][B,=EB][_A,F_A] | .[G,G].[=B,F=B]!ff! .[C=Ec].[_B,G_B].[=A,=A].[^CG^c] | %119
!ff! .[D^Fd].[=C=A=c].[B,B].[D_Ad]!ff! .[EGe].[DBd] | %120
.[Cc].[=EB=e]!ff! .[F=Af].[_Ec_e]!mf!.[Dd].[^Fc^f] | %121
 .[GBg]!<(!.[=Ad=a].[Bdb].[=Bg=b]!f! .[cgc'].[^cg^c']!<)! |!ff! [d^fd']2 .[=cd=a=c']2 .[_Bdg_b]2 | %123
 z2 .[_A=Bf_a]2 .[Gceg]2 | z2 .[_Bcg_b]2 .[=Acf=a]2 | z2 .[cd=ac']2 .[Bdgb]2 | %126
 z2 .[_A=Bf_a]2 .[Gceg]2 | z2 .[_Bcg_b]2 z2 | .[Bcgb]2 z2 .[Bcgb]2 | z2 .[Bcgb]2 z2 | %130
 .[Bcgb]2 z2 .[Bcgb]2 | z6 |!mf! B2!p! _d2 =e2 | [Bf]6 | B2!p! _d2 =e2- | e2 _e2 _d2- | %136
 d2 =B2 c2- | c2 F2 e2- | e2 ^c2 d2- | d!mp!^FG=B=cd | e^fgedc | %141
!<(! [DF_B] [FBd]!mf![FBf][Bb]!f![dd'][ff']!<)! | %142
!ff! [=ae'f']/f/[ae'f']/f/ [ae'f']/f/[ae'f']/f/ [ae'f']/f/[ae'f']/f/ |!f! .[Bdb]2!ff! .F2 .D2 | %144
 .[Bb]2!ff! .G2 .E2 | .[Bb]2!ff! .F2 .D2 |!ff! .[Be_gb]2 .[Begb]2 .[Begb]2 |!f! [df]2!p! z2 x2 | %148
 [Bb]4!pp! [Ff]2 | _A4 _c2 | ADFAdf | a2 z2 _C2 | =A,4 B,2 | z2 z2 G2 | =E4 F2- | F2 z2 [Gg]2 | %156
 [=E=e]4 [Ff]2 | [Ff]2 z2 G2 | =E4 F2 | F2 z2 [=Bdf]2- | [Bdf]4 [F=Bd]2- | [FBd]4 [DF=B]2- | %162
 [DFB]4 [=B,D-F-]2 | [=B,DF]4 [CE]2- |!f! [CE]4!p! [CE^F]2 |!p! [=B,DG]2 =a3 g | ^f2 g3 =f | %167
 d2 f'3 d' | =b2 d'3 f | =e2 =a3 g | ^f2 g3 =e | c2 =e'3 c' |!p! g2 c'3 =e | [Ff]2 g3 f | %174
 =e2 f3 d | [F=B]2 [Dd]3 B | [=B,G]2 [Fd]3 [DF] | %177
!ppp! [C_E]/G,/[CE]/G,/ [CE]/G,/[CE]/G,/ [CE]/G,/[CE]/G,/ | %178
 [CE]/G,/[CE]/G,/ [CE]/G,/[CE]/G,/!p! G2 |!p! c2 [Ee]2 [Gg]2 | [Aa]4!pp! [CE]/A,/[CE]/A,/ | %181
 [^C=E]/^G,/[CE]/G,/ [CE]/G,/[CE]/G,/ [CE]/G,/[CE]/G,/ | %182
 [^C=E]/^G,/[CE]/G,/ [CE]/G,/[CE]/G,/!mp! [E^G]2 |!mp! ^c2 [=E=e]2 [^G^g]2 | [=A=a]4!mf! [A^cfa]2 | %185
 [=Adf=a]f/g/ .fd/=e/ .dA/B/ | .=AF/G/ .FD/F/ .Ad/f/ | .[=Adf=a] a2 a2 a- | %188
 a F/G/ .F=A/d/ .f=e/d/ | .[^cg=a] G/=A/ .G=E/F/ .E^C/D/ | .^C =A,/B,/.A, C/=E/.G ^c/=e/ | %191
!mf! [=A^cg=a] G/A/ .G=E/F/ E^C/D/ | ^C =E/=A/ ^c=e/d/ ce/c/ |!p! =a3!p! .a.^f.d | g3!p! .b.g.d | %195
 .=a.c'.a.d.a.c'!mp! | .=a.[=Ad]!mf!.[Aa].[cc']!f!.[Aa].[Ad] |!mf! [dgbd']b/c'/ .bg/=a/ gd/.e/ | %198
 .dB/c/ .BG/B/ .dg/b/ | .[dgbd'] d2 d2 d- | .d D2 d2 d | .[D^Fcd] c'/d'/ .c'=a/b/ .a^f/g/ | %202
 .^fD/E/ .D^F/.=A/ .df/=a/ | [d^fc'd'] d2 d2 d- | d d2 x x2 | [Gdg]2 z!p! .[dg].[=Bg].G | %206
 e3 .[eg] .[cg].G | d.[fg].[dg].[Gg]!mp!.[dg].[fg] | .[dg].[Gg].[dg].[fg].[dg].[Gg] | %209
 =e3 [gc'] [ec']c | f3 [ac'] [fc']c | g[bc'][gc']!mp![cc'][gc'][bc'] | %212
 .[gc'].[cc'].[gc']!mf!.[bc'].[gc'].[cc'] |!f! z2 z .f' .f' z | z2 z .f' .f' z | z2 z .e' .e' z | %216
 z2 z .e' .e' z |!mf! [a_d']/_d/[ad']/d/ [ad']/d/[ad']/d/ [ad']/d/[ad']/d/ | %218
 [ab=d']/=d/[abd']/d/ [abd']/d/[abd']/d/ [abd']/d/[abd']/d/ | [ege']2!p! f3 e | .=d2 e3 _d | %221
 .B2 [_d_d']3 [Bb] | .g2 b3 _d | c2 f3 e | .=d2 e3 c | .A2 [cc']3 a | z!pp! ._d!p!.e!pp!.f.g!p!.a | %227
 .b2 z2 z2 | .B2 _d3 B |!mf! .G2!p! B3 G | E2 B3 _D | z2 z2!p! c2- |!p! c.=d.=e.f.g.a | %233
 .[Bb] z z2 _d2- | d2 [Ac][GB][FA][=EG] | [FA]2!mp! F3!p! A, | G,2!mp! _E3!p! E | F2!mf! d3!mp! F | %238
 E z!mf! c3 E | .D z!mf! g3!mp! B | =A2!mf! ^f3!mp! E |!p! .gg/=a/ .[db].g.e.d | %242
 .c.=a .B.[gb].[gb].[gb] | .[gb]2!mf! [GB]3!mp! [GB] | .[F=A]2!mf! [f=a]3 [fa] | %245
 .[fg]2 [=EG]3 [EG] | .[DF]2!f! [df]3 [df] | [df]2 [^G=Bf]3!f! F | F2!ff! f3!f! F | %249
 F2 [F^Gf]2!f! =B2 | [^G^g]2!f! =B2!ff! [Bf=b]2- | [Bfb]2 [F^Gf]2!f! =B2 | %252
!ff! [^G^g]2!f! =B2 [Bf=b]2 | [A,=C=E]2!ff! [=A=e]3!f! E | =E2!ff! =e3 E | =E2!ff! [E=e]2!f! =A2 | %256
 [=e=a]2!f! =A2!ff! [ea]2- | [ea]2 [=E=e]2!f! =A2 |!ff! [=e=a]2!f! =A2 [ea]2 | %259
 [^D=A]2!ff! [^d=a]3!f! A | =A2!ff! [^d=a]3!f! A | =A2!ff! [^D^d]2!f! A2 | %262
!ff! [^F^d^f]2!f! =A2 [Adf=a]2- | [Adfa]2 [^D^d]2!f! =A2 |!ff! [^F^d^f]2!f! =A2 [Adf=a]2 | %265
!f! .[=EG]2!ff! [=eg]3!f! [EG] | [=EG]2!ff! [=eg]3!f! [EG] | [=EG]2!ff! [Gg]2!f! =e2 | %268
!ff! [^cg^c']2!f! =e2!ff! [eg=e']2- | [ege']2 [Gg]2!f! =e2 |!ff! [^cg^c']2!f! =e2!ff! [eg=e']2 | %271
 z2!ff! [^d^f=c'^d']4 | [^d^fc'^d']4 .[df=c'd']2 | z2!ff! [=egc'=e']4 | [=egc'=e']4 .[egc'e']2 | %275
 .[F=ef]2!f! [fc'=e'f']4 |!mf! .[F=ef]2!f! [fc'=e'f']4 | .[F=ef]2!f! [fc'=e'f']4 | %278
!f! [fc'=e'f']4!f! [fc'e'f']2 | z2 .[=A,C^D]2 .[A,CD]2 |!mf! .[=A,C^D]2 .[A,CD]2!mp! .[A,CD]2 | %281
 .[=A,C^D]2!p! .[A,=B,D]2 .[A,B,D]2 | .[=A,=B,^D]2 .[A,B,D]2 .[A,B,D]2 | %283
 [G,=B,=E]2 [G=B=e]2 [=AB^d]2 |!mf! [=B=e]3 [^d^f] [eg]2 | [=B^f]2 [f=b]2 [=e^a]2 | %286
!mf! =b3 =a g^f!p! | =e2 e2 ^d2 |!mf! =e3 [^d^f] [eg]2!p! | [=B^f]2 [=f=b]2 [=e^a]2 | =b4 ^g2 | %291
 =a2!p! a2 ^g2 |!mf! =a3 =b c'2 | [=e=b]2 [e=e']2 [^d^d']2 | =e'3 =d'c'=b | =a2 a2 ^g2 | %296
 =a3 =b c'2 | [=e=b]2 [e=e']2 [^d^d']2 | [=e=e'] =E!mp!GF!mf!ED |!p! C/c/C/c/ C/c/C/c/ =E/=e/E/e/ | %300
 C/c/C/c/ C/c/C/c/ G,/G/G,/G/ | C/c/C/c/ =E/=e/E/e/ G/g/G/g/ | C/c/C/c/ C/c/C/c/ G,/G/G,/G/ | %303
 C/c/C/c/ =E/=e/E/e/ G/g/G/g/ |!p! c/c'/c/c'/ =e/=e'/e/e'/ g/g'/g/g'/- | %305
 g' z/ .[ff']/z/.[dd']/z/!mp!.[=B=b]/z/.[Gg]/z/.[Ff]/ | %306
 z/ .[Dd]/z/.[Ff]/z/.[Dd]/z/.[=B,=B]/z/.G/z/.[B,B]/ | C/c/C/c/ _E/_e/E/e/ G/g/G/g/ | %308
 c/c'/c/c'/ e/e'/e/e'/ g/g'/g/g'/- | [gg'] z/ .[ff']/z/.[dd']/z/.[=B=b]/z/.[Gg]/z/.[Ff]/ | %310
 z/ [Dd]/z/[Ff]/z/[Dd]/z/[=B,=B]/z/G/z/[B,B]/ |!p! C/c/C/c/ E/e/E/e/ G/g/G/g/ | %312
 A/a/A/a/ A/a/A/a/ C/c/C/c/ | _D/_d/D/d/ F/f/F/f/ =A/=a/A/a/ | B/b/B/b/ B/b/B/b/ =D/=d/D/d/ | %315
 E/e/E/e/ G/g/G/g/ B/b/B/b/ | e/e'/e/e'/ g/g'/g/g'/ b/b'/b/b'/- | %317
 b' z/ .[aa']/z/.[ff']/z/!mp!.[dd']/z/.[Bb]/z/.[Aa]/ | %318
 z/ .[Ff]/z/.[Aa]/z/!mf!.[Ff]/z/.[Dd]/z/.B/z/.[Dd]/ | E/e/E/e/ _G/_g/G/g/ B/b/B/b/ | %320
 e/e'/e/e'/ _g/_g'/g/g'/ b/b'/b/b'/ |!ff!!8va(! .[e'e'']2!8va)!!p! e2 =d2 | e3 [Ff] _g2 | %323
 [Bf]2 [fb]2 [e=a]2 |!mf! b3 _a_gf | [_Ge]2 [Ee]2 [Ff]2 | [_G_g]3 [Ff] [Ee]2 | [_D_d]6- | %328
 [Dd][_C_c][B,B][Cc]!mp![_D_d][Cc] | [B,B]2 B4 | B6 | _c2 =c2 _d2 | e3 _d _c2 | %333
!p! [_GB_g] [_DGB]2 [DGB]2 [DGB]- | [DGB] [_D_GB]2 [DGB]2 [DGB-] | [=DAB] [DAB]2 [DAB]2 [DAB-] | %336
 [E_GB] [EGB]2!mp! [EGB]2 [EGB] | (3B,[DF]B (3DFB (3DFB | (3z DF (3DFD (3FDF | %339
 (3B,DF (3DFD (3F[Bd]f | B2 d2 f2 |!p! (3B,[E_G]B (3EGB (3EGB | (3z E_G (3EGE (3z EG | %343
 (3B,E_G (3EGE (3G[Be]_g | (3B[e_g]b!mp! (3e[gb]e'!p! (3=g[be']_g' | (3C[E_G]B (3EGB (3EGB | %346
 (3z E_G (3EGE (3z EG | (3z E_G (3EGE (3Ge_g | (3A[e_g]a (3e[ga]e'!p! (3g[ae']_g' | %349
 (3_DFA (3FAF (3FA_d | (3z FA (3FAF (3z FA | (3z FA (3z FA (3A_df | _d2!p! f2 a2 | %353
 (3z AF (3AFA (3FAF | (3z FA!mp! (3FAF (3z FA | (3B,FA!mf! (3DFA (3z AF |!f! f2!p! a2 b2 | e4 _g2 | %358
 (3z!p! [_GB]e (3[GB]eB (3GBe | e4 _g2 | e2 _g2 b2 | %361
!mp! [_ce_g]/_c'/[ceg]/c'/ [ceg]/c'/[ceg]/c'/ [ceg]/c'/[ceg]/c'/ | %362
 [_ce_g]/_c'/[ceg]/c'/ [ceg]/c'/[ceg]/c'/ [ceg]/c'/[ceg]/c'/ | %363
 [_ce_g]/_c'/[ceg]/c'/ [ceg]/c'/[ceg]/c'/ [ceg]/c'/[ceg]/c'/ | %364
 [_ce_g]/_c'/[ceg]/c'/ [ceg]/c'/[ceg]/c'/ [ceg]/c'/[ceg]/c'/ | _c'2 z2 z2 |!f! [e_g]6 |!f! [e_g]6 | %368
!f! [Ee_g]6 |!p! [=A_g]6 | [=A_g]6 | [=A_g]6 |!p! [E=A_g]6 | [_A_g]6 | [Af]6 | [_Gf]6 | [_Ge]6 | %377
 [FAe]6 | [FAe]6 | [FAd]6 | [FAd]6 |!ppp! _c/A/c/A/ c/A/c/A/ c/A/c/A/ | %382
 _c/A/c/A/ c/A/c/A/ c/A/c/A/ | [FA_cd]6 | [FA_cd]6 | B/A/B/A/ B/A/B/A/ B/A/B/A/ | %386
 B/A/B/A/ B/A/B/A/ B/A/B/A/ | [FABd]6 | [FABd]6 |!ppp! _c/A/c/A/ c/A/c/A/ c/A/c/A/ | %390
 _c/A/c/A/ c/A/c/A/ c/A/c/A/ | B/A/B/A/ B/A/B/A/ B/A/B/A/ | B/A/B/A/ B/A/B/A/ B/A/B/A/ | %393
 B/A/B/A/ B/A/B/A/ B/A/B/A/ | B/A/B/A/ B/A/B/A/ B/A/B/A/ | %395
 [ABd]/F/[ABd]/F/ [ABd]/F/[ABd]/F/ [ABd]/F/[ABd]/F/ | %396
 [dfa]/B/[dfa]/B/ [dfa]/B/[dfa]/B/ [dfa]/B/[dfa]/B/ | [Beg]!ppp! [B,G][B,G][B,G][B,G][B,G] | %398
 [B,G][B,G][B,G][B,G][B,G][B,G] |[B,G][B,G][B,G][B,G] GG | [B,G][B,G][B,G][B,G][B,G][B,G] | %401
 z!pp! g2 g2 g- | g!p! g2!mp! g2!mf! g |!f! [Gg]6 |!p! [Ff]6 | [Ff]2 [=E=e]2 [Dd]2 | %406
!pp! =e/4f/4e/4f/4e/4f/4e/4f/4 e/4f/4e/4f/4e/4f/4e/4f/4 e/4f/4e/4f/4d/e/ |!p! f2 z2 z2 | %408
!mp! F4 C2 | F2 =A2 c2 | c6- | c2!mp! c2 c2 | c6- | c6- | c6 |!mp! [F_A_d]4 f2 | _d4 A2 | %417
 _d2 f2 a2 | a4!mp! a2 | a2 a2 a2 | a4!mp! A2 | [FA] [FA]2 F2 [FA]- | %422
 [EFA]!p! [EFA]2 [EFA]2 [EFA] |!ppp! [DFA]/B,/[DFA]/B,/ [DFA]/B,/[DFA]/B,/ [DFA]/B,/[DFA]/B,/ | %424
 [DFA]/B,/[DFA]/B,/ [DFA]/B,/[DFA]/B,/ [DFA]/B,/[DFA]/B,/ | %425
 [FA]/D/[FA]/D/ [FA]/D/[FA]/D/ [FA]/D/[FA]/D/ | [FA]/!pp!D/[FA]/D/ [FA]/D/[FA]/D/ [FA]/D/[FA]/D/ | %427
 [dfa]/B/[dfa]/B/ [dfa]/B/[dfa]/B/ z/!p!!<(! [Bb]/z/[cc']/ | %428
 z/ [dd']/z/!mp![ee']/z/[ff']/z/[gg']/z/!mf![aa']/z/[dd']/!<)! |!f! [egbe']4 [gg']2 | %430
 [ee']4 [Bb]2 | [ee']2 [gg']2 [bb']2 | [ee']4!ff! [=EB_d=e]2 |!f! [FAcf]2 [Aa]2 [cc']2 | %434
 [Ff]4 [^F=Ac^f]2 | [GB_dg]2 [Bb]2 [d_d']2 | [Acea]2 [cc']2 [ee']2 | [A=dfa]2 [dd']2 [ff']2 | %438
 [aa']2 [ad'a']2 [ad'a']2 |!mp! [e'g']/g/[e'g']/g/ [e'g']/g/[e'g']/g/ [e'g']/g/[e'g']/g/ | %440
 [e'g']/g/[e'g']/g/ [e'g']/g/[e'g']/g/ [e'g']/g/[e'g']/g/ | %441
 [e'g']/g/[e'g']/g/ [e'g']/g/[e'g']/g/ [e'g']/g/[e'g']/g/ | %442
 [e'g']/g/[e'g']/g/ [e'g']/g/[e'g']/g/ g'2 | g'2 g'2 g'2 | g'4 g'2 | %445
 [gc'g']f/!f!f'/ =e/=e'/f/f'/ g/g'/f/f'/ | f/f'/e/e'/ d/d'/e/e'/ f/f'/e/e'/ |!f! [dd']2!p! c'3 b | %448
 =a2 b3 _a | f2 a3 f | d2 f3 A | [EG]2 c'3 b | =a2 b3 g | e2 g3 e | B2 e3 G | A2 [_C_c]3 [B,B] | %456
 [A,A]2 [_c_c']3 [Bb] | [Aa]2!ff! [=cb=c']3 [Bb] | .[ABa]2 .[GBg]2 .[FBf]2 |!p! e6 | e4 z2 | %461
 e2 b2 b2 | .[fab]2 .[fab]2 .[fab]2 | [egb] [eg][df][eg][fa][gb] | %464
 [ac'][b=d'][c'e']e'[d'e'][c'e'] | .[be'].[Ge].[Fd].[Ge].[df].[eg] | %466
 .[fa].[fa].[fa].[Afa].[Afa].[Afa] | .[Afa]f/g/ .fd/e/ .dA/B/ | .AF/G/ .FD/E/ .D.[dfa] | %469
 .[eg]e/f/ .ec/d/ .cG/A/ | .GE/F/ EC/D/ .C.[ceg] | [=eg_d'] _d/_e/ .dB/c/ .BG/A/ | %472
 .G=E/F/ .EE/F/ .E.[_EG_d] | .[FAc]C/_D/ .C.[EFc].[=D=d].[DFG] | .[EGe]E/F/ .E.[EAe].[FAf].[FAB] | %475
 .[Geg].G.[Geg].G.[Aea].A | .[=Ae^f=a].A.[Begb].B.[=Be=b].B | %477
 .[cec'] =B/=b/ c/c'/B/b/ c/c'/[Gc]/g/ | [Ac]/c'/[Gc]/g/ _B/_b/[Ac]/a/ [Gc]/g/[Fc]/f/ | %479
 E/e/E/B/ E/c/D/d/ E/e/F/f/ | G/g/A/a/ =A/=a/B/b/ _A/_a/G/g/ |!f! f/B/g/B/ a/B/g/B/ f/B/e/B/ | %482
 d/B/e/B/ f/B/e/B/ d/B/c/B/ |!ff! b/B/=a/B/ _a/B/g/B/ f/B/e/B/ | %484
 d/b/B/b/ B/b/ z/ [B,AB]/z/[B,GB]/z/[B,FB]/ | E2!p! .[Bg]2 .[Bg]2 | .[Bg]2!mp! .[Bg]2 .[Bg]2 | %487
 .[Bg]2!mf! .[Bgb]2!ff! .[=Bg=b]2 |!mf! g4 f2 | z2 .[CA]2 .[^CA]2 | .[DA]2 .[DB]2!mp! .[DB]2 | %491
 B2!f! =B2!mf! c2 | c2 _B!mp!AGF |!mp! b2 a_gfe | .[B_g]2 .[_cga]2!mp! .[cga]2 | %495
 .[_c_ga]2 .[cga_c']2!mf! .[cgac']2 |!ff! _g4!mf! f2 | z2[K:bass]!mp! B,,2 _G,,2 | F,,4 =E,,2 | %499
 F,,2[K:treble]!p! e2 c2 |!>(! z2!p! .[e_g]2 .[ef]2!>)! | [_Adf]2!pp! .[A,_CD]2 .[A,CD]2 | %502
 z2 .[G,B,E]2 .[F,_B,_D=E]2 | z2 .[B,=DF]2 .[B,_EG]2 | .[B,FA]2 .[B,GB]2{/._B,} .[G=B]2 | %505
 .[Ac].[G_B].[FA].[EG].[DF].[EG] | .[FA].[EG].[DF].[EG].[FA].[GB] | %507
 .[Ac].[GB].[FA].[EG]!p!.[DF].[EG] | .[FA].[EG].[DF].[EG]!mp!.[FA].[GB] | %509
 .[Ac].[GB].[FA].[=EG].[FA].[GB] | .[Ac].[Bd].[ce]!mf!.[df].[eg].[fa] | [Bgb]4 .[Gg]2 | %512
 .[Ee]2!ff! .[GBg]2 .B2 | .[Ff]2 .[ABa]2 .B2 | .[Dd]2!ff! .[FBdf]2 .B2 | %515
!ff! .[Begb]2 [bb']3 [gg'] | .[ee']2!ff! [gg']3 b | .[ff']2!ff! [aa']3 b | .[dd']2!ff! [ff']3 b | %519
 .b.[dd'].[ee'].[dd'].[ee'].[=A=a] | .[Bb].[^F^f].[Gg].d.[Ee]._d | .c.[B=e].[=Af].[c_e].d.[c^f] | %522
 .[=Bg].[d=f].e.[_dg]!ff!.[ca].[eg] | .f.[e=a]!ff!.[db].[f_a].g.[f=b] | %524
 .[ec'].[dd'].[ee'].[=e=e'].[ff'].[^f^f'] | .[gg']2!ff! .[=fd'=f']2 .[ee']2 | %526
 z2 .[_db_d']2 .[cac']2 | z2 .[ec'e']2 .[=db=d']2 | z2 .[fd'f']2 .[ec'e']2 | %529
 z2 .[_db_d']2 .[cac']2 | z2!fff! .[e_gc'e']2 z2 | .[e_gc'e']2 z2 .[egc'e']2 | z2 .[e_gc'e']2 z2 | %533
 .[e_gc'e']2 z2 .[egc'e']2 | z6 | [Ee]2 [_G_g]2 [=A=a]2 | [Bb]6 | [Ee]2 [_G_g]2 [=A=a]2- | %538
 [Aa]2 [_A_a]2 [_G-_e_g-]2 | [Gg]2 [=EA_d=e]2 [Ff]2- | [FAf]2 B2 [Aa]2 | [Aa]2 [^FB^f]2 [Gg]2- | %542
 [Gg]=Bc[=E=e][Ff][Gg] |!mp! [Aa][=B=b][cc'][cfa][_B=eg][Acf] | %544
!mf! .[GBe].[Gg].[Bb]!f!.[Bb].[eb].[gb] |!ff! [fab]/d/[fab]/d/[fab]/d/[fab]/d/[fab]/d/[fab]/d/ | %546
!f! [Ge]2!ff! .B2 .G2 |!f! [ee']2!ff! .c2!f! .A2 |!f! [ee']2!ff! .B2 .G2 | %549
 .[da_c'e']2 .[dac'e']2 .[dac'e']2 | [egbe']2 z2 z2 | z2 z!p! e[Gg][Bb] | [ee']4 [gg']2 | %553
 [ee']4 [Bb]2 | [ee']2 z4 | z6 |!f!!8va(! [fa_d'f']6- | [fad'f']6 |!p! [_d_d']6- | [dd']6!8va)! | %560
 [c=egc'][cegc'][cegc'][cegc'] [eg=e'][ege'] | [c=egc'][cegc'][cegc'][cegc'] [Gceg][Gceg] | %562
!p! [cc']2 z2 z2 |[K:bass]!pp! C,,6- | C,,6- | C,,2 z2 z2 |[K:treble]!pp! z g/^f/ .g.g.g.g | %567
 z g/^f/ .g.g.g.g | z g/^f/ .g.=a.=b.c' | .d'.=e'.f'.e'.d'.c' | .=b.c'.d'.c'.b.=a | %571
 .g.^f.g.=f.=e.d | z c/=B/ .c.=e.g.e | .c'.g.=e.g.e.c | z c/=B/ .c.f.a.f | .c'.a.f.a .f.c | %576
!p! z .b.c'._d'.g.a | .b.=e.f.g.B.c | ._d.c.B.A.G.F | .=E.G.c._B._A.G | F2!p! f2 =e2 | %581
!mf! [cf]3 [=eg] [fa]2 | g2 c'2 =b2 |!mf! c'3 _b ag | f2 f2 =e2 |!mf! [cf]3 [=eg] [fa]2 | [fa]6- | %587
 [fa]6 | [e_g]2 [Be]2 [Bd]2 | [Be]3 f _g2 | [Bf]2 [fb]2 [e=a]2 |!f! b3 _a _gf | [Be]2 [Be]2 [Bd]2 | %593
 [Be]3 [df] [e_g]2 |!p! fb/=a/ .b.b.b.b | b6- | b _a/g/ .a.a.a.a | a6 | %598
 z [fa]/[=eg]/ .[fa].[fa].[fa].[fa] | z [_e_g]/[df]/ .[eg].[eg].[eg].[eg] | %600
 z [ef]/E/ .[ef].[ef].[ef].[ef] | z [ef]/E/ .[ef].[ef].[ef].[ef] | %602
!pp! [df] B/B,/ B/B,/B/B,/ B/B,/B/B,/ | B/B,/B/B,/ B/B,/B/B,/ B/B,/B/B,/ | B6- | B4 =B2 | %606
 [=Ac]/E/[Ac]/E/ [Ac]/E/[Ac]/E/ [Ac]/E/[Ac]/E/ | [=Ac]/E/[Ac]/E/ [Ac]/E/[Ac]/E/ [Ac]/E/[Ac]/E/ | %608
 c6- | c4!p! ^c2 |!mp! d6- | d2!mp! d2!mp! B2 |!mp! f2!mp! e4- | e2!mp! e2!mp! B2 | %614
!mp! _g2!mp! g4- | g2!mf! _g4- | g2!mf! ._g2!mf! .g2 |!mf! _g2!mf! f2!mf! e2 |!mf! d2!mf! a4- | %619
 a2!f! a4- | a2!mf! d'2!mp! d'2 |!mp! d'2!mp! e'2!mp! f'2 |!p! [gf'][ge'][^fd'][ge'][af'][ge'] | %623
 z [ee'][dd'][ee'][ff'][ee'] | z [cc'][=B=b][cc'][dd'][cc'] | z [cc'][=B=b][cc'][dd'][cc'] | %626
 z _B=ABed |!mp! feg[Ff][Aa][Gg] | [Bb]!mf![=A=a][cc'][Bb][_A_a][Gg] |!mp! [Ff]edf[Aa]d | %630
!p! [Ge] E/F/ .GG/A/ .Bc/d/ | .ee/f/ .gg/a/ .bc'/d'/ | .e'b/a/ .g.f.e.d |!mp! e2 [eg]2 .[egb]2 | %634
!p! [Bfb] B,/C/ .DD/E/!mp! .FF/!p!G/ | .AB/c/ .dd/e/ .ff/g/ | .ac'/b/ .a.g.f.e | f2 a2 [dab]2 | %638
!pp! eG/A/ Bc/d/ ee/f/ | gG/A/ BB/c/ de/f/ | .g.f.e.dz.B | B6 |!mp! [FABf]4!mp! [Aa]2 | %643
!mp! f4!mp! B2 | f2!mp! a2!mp! .b2 |!mp! b3 z z2 | [G,E] G/A/ .B!mp!.[Bb].[cc'].[dd'] | %647
 .[ege'].[Bb].[cc'].[dd'].[ee'].[ff'] | .[gg']g'/f'/ .e'.[dd'].[cc'].[Bb] | %649
 .[Aa].[Gg].[Ff].[Ee].[Dd].[Cc] | [B,AB] B/c/ .[Dd].[Ee].[Ff].[Gg] | %651
 .[Aa].b/.c'/ .d'.[ee'].[ff'].[gg'] | .[aa'].[gg'].[ff'].[ee'].[dd'].[cc'] | %653
 .[Bb].[cc'].[Bb].[Aa].[Gg].[Ff] | [EGBe] z [egbe']2 [gbe'g']2 | [egbe']4 [Begb]2 | %656
!8va(! [egbe']2 [gbe'g']2 [be'g'b']2!f! | [be'g'b']4!8va)! z2 | [B,DAB]2 [FBf]2 [ABa]2 | %659
 [FBf]4 [B,DFB]2 | [FAdf]2 [Aa]2 [Bdfb]2 | [Bdfb]4 z2 | [B,_D=EB]2 (3[gb=e']=e[GBe] (3E[B,DE]G, | %663
 (3[B,_D=E]_E[GB=e] (3=E[GBe]e (3[gb=e']e[gbe'] |!f! .[fac'f']2 [Fc_ef][Fcef] .[Fcef]2 | %665
 .[^fc'e'^f']2 [^Fcef][Fcef] .[Fcef]2 | [gbe'g']2 [GBeg][GBeg] [GBeg]2 | %667
 .[ad'f'a']2!ff! [Adfa][Adfa] .[Adfa]2 |!8va(! .[gc'e'g']2!8va)!!ff! [Gceg]!f![Gceg] [Gceg]2 | %669
!8va(! .[fc'e'f']2!8va)!!ff! [Fcef]!f![Fcef] [Fcef]2 | %670
!8va(! [gbe'g'][gbe'g'][gbe'g'][gbe'g'][gbe'g'][gbe'g'] | %671
 [ad'a'][ad'a'][ad'a'][ad'a'] [fad'f'][fad'f']!8va)! |!p! [ege']2 [EG]2!<(! [FA]!mp![GB]!<)! | %673
 [Ac]2!p!!>(! [Bd]2 [ce]2!>)! | z2 b2 b2 | .[Bfab]2 .[Bfab]2 .[Bfab]2 | b .g!mp!.f.g.a.b | %677
 .c'.d'.e'.e'.e'.e' | .[ebe'] .[GBe]!mf!.[FBd].[GBe].[Adf].[Geg] | %679
 .[Afa].[Afa].[Afa].[Afa].[Afa].[Afa] | .[Afa]2!f! [Adfa]4- | [Adfa]2!f! [dfad']4- | %682
 [dfad']2!f! [fad'f']4 |!f! [ad'f'a']4!f! .[ad'f'a']2 | .[ad'f'a']2 .[DFAd]2 .[A,B,]2 | %685
 .[FAdf]2 .[A,B,]2 .[Bdfb]2 | .[A,B,]2 .[dfad']2 .[A,B,]2 | .[fad'f']2 .[A,B,]2!8va(! .[bd'f'b']2 | %688
 .[gbe'g']2!8va)! z2 z2 | .[GBeg]2 z2 z2 | .[G,B,E]2 z2 z2 |] %691
V:2
!ped! [E,,B,,G,]2!ped-up! z2 z2 |!ped! [E,,B,,G,]2!ped-up! z2 z2 |!mp! E,4 G,2 | E,4 B,,2 | %4
 E,2 G,2 B,2 | E,4 D,2 |!ped! z!ppp! [B,G] [B,G][B,G][B,G][B,G]!ped-up! | %7
!ped! [B,G][B,G][B,G][B,G][B,G][B,G]!ped-up! |!p!!ped! z!p! B,GB,GB,!ped-up! | %9
!ped! FB,FB,DB,!ped-up! |!ped! EB,EB,EB,!ped-up! |!mp! A,E,B,E,CE, |!mf!!ped! B,F,G,B,FE!ped-up! | %13
!ped! D,B,G,B,F,F,!ped-up! |!ped! E,,!pp! [E,G,B,][E,G,B,][E,G,B,][E,G,B,][E,G,B,] | %15
 [E,G,B,][E,G,B,][E,G,B,][E,G,B,][E,G,B,][E,G,B,] | %16
 [E,G,B,][E,G,B,][E,G,B,][E,G,B,][E,G,B,][E,G,B,]!ped-up! | %17
 [G,B,][G,B,] [G,B,_D][G,B,D]!pp! [G,B,C][G,B,C] |!ped! [A,C][A,C] z [F,A,C] z [F,A,C] | %19
 z!ped-up! [F,A,C] [F,A,_D][F,A,D] [B,DE][B,DE] |!ped! [CE][A,CE][A,CE][A,CE][A,CE][A,CE]!ped-up! | %21
 [A,CE]!p![A,CE] z!mp! [CE] z [_CEF] |!ped! [B,DF] x x4!ped-up! | F2 D z [B,,F,A,]2 | %24
 .[B,,E,G,]2 [B,,E,_G,]4 | [B,,E,_G,]4 [B,,E,G,]2 |!f!!ped! [B,,F,B,]!p! B,,D,F,!ped-up!B,D | %27
 F2 D z!f! [B,,D,F,]2 | [A,,A,] z [A,,B,,A,]4 | [A,,B,,A,]4 [A,,B,,A,]2- | %30
 [A,,B,,A,]2 [G,,B,,E,G,]4 | [G,,B,,E,G,]4 [G,,B,,E,G,]2- | %32
 [G,,B,,E,G,]2 .[A,,D,F,A,]2 [A,,B,,F,A,]2- | [A,,B,,F,A,]2 .[G,,B,,E,G,]2 .[G,,E,G,]2 | %34
 .[F,,F,] .[A,FA].[A,FA].[G,EG].[F,DF].[E,CE] | %35
 .[D,B,D].[C,A,C].[B,,G,B,].[B,,F,A,].[B,,E,G,].[B,,F,] |!ff!!ped! [E,,E,]2 [E,E]2 [G,G]2!ped-up! | %37
!ped! [E,E]4 [B,,B,]2!ped-up! |!ped! [E,E]2 [G,G]2 [B,B]2!ped-up! |!ped! [E,E]4 [G,,G,]2!ped-up! | %40
 [C,C]2 [E,E]2 [G,G]2 | [C,C]4 [B,_DG]2 |!ped! [A,,A,]!mp! [CEA][A,CE][A,CE][A,CE][A,CE]!ped-up! | %43
!f!!ped! [_G,,_G,]!mf! [G,B,C=E][G,B,CE][G,B,CE][G,B,CE][G,B,CE]!ped-up! | %44
 .[F,=A,CF]!pp!!ped! CA,CA,C!ped-up! |!ped! =A,CA,CA,C!ped-up! |!ped! z =A,F,A,F,A,!ped-up! | %47
!ped! z C=A,FA,F!ped-up! |!ped! B,DB,DB,D!ped-up! |!ped! B,DB,DB,D!ped-up! | %50
!ped! z B, F,B,F,B,!ped-up! |!p!!ped! DFDFDF!ped-up! |!ped! C=A,!mp![CE]A,!ped-up![CE]A, | %53
!ped! [CE]=A,[CE]A,!ped-up![CE]A, | C2!ped! [=G,,=G,]3!>(! [F,,F,]!ped-up! | %55
 .[E,,E,]2 .[D,,D,]2!mf! .[C,,C,]2!>)! |!p! [B,,,B,,]2 z2 =A,_A, | [G,B,]2 [F,=A,]2 [E,G,]2 | %58
 [B,,B,].F,.E,.D,.C,.B,, | .=A,,.B,,.C,.F,,.G,,.A,, | B,,!mp!.B,.B,B,=A,_A, | %61
 G,!mf!F,.E,.[G,B,].[F,=A,].[E,G,] | .[F,A,]!f! .[F,F].[E,E].[D,D].[C,C].[B,,B,] | %63
 .[=A,,=A,].[B,,B,].[C,C].[B,,B,].[A,,A,].[G,,G,] |!f! .[^F,,^F,]2 .[F,=A,CE]2 z2 | %65
 z E/F/ .EC/D/ .C.[^F,,^F,] | .[G,,G,]2 .[G,B,D]2 z2 | z D/E/ .DB,/C/ .B,.[G,,G,] | %68
 .[F,,F,]2 .[F,_A,=B,D]2 z2 | z =B,/C/ .B,[F,_A,D]/E/ .D.[F,,F,] | %70
 .[E,,E,] E,2 .[=E,,=E,].[F,,F,].[^F,,^F,] | .[G,,G,] G,2 .[G,,G,].[_A,,_A,].[A,,A,] | %72
 [B,,B,][B,,B,] [_A,,B,,_A,][A,,B,,A,] [G,,B,,G,][G,,B,,G,] | %73
 [_G,,B,,_G,][G,,B,,G,] [F,,B,,F,][F,,B,,F,] [D,,B,,D,][D,,B,,D,] | %74
 [E,,E,] [E,G,B,][E,G,B,][E,G,B,] [E,G,B,][E,G,B,] | %75
 [E,G,C][E,G,=B,][E,G,D][E,G,C] !arpeggio![E,F]E | [F,D]F,[F,=E][F,_E][F,D][F,C] | %77
 [F,B,][F,C][F,^C][F,D][F,=C][F,B,] | [F,,F,] [F,=A,CE][F,A,CE][F,A,CE][F,A,CE][F,A,CE] | %79
 [F,=A,CE][F,A,CE][F,A,CE][F,A,CE][F,A,CE][F,A,CE] |!ff! [F,=A,CE]!ped! x x4!ped-up! | %81
!ped! x2!ped-up!!ped! z/ [F,F]/z/[E,E]/z/[D,D]/z/!ped-up![C,C]/ | [B,,B,] z .[B,D]2 .[B,D]2 | %83
 .[B,D]2 .[B,D]2!mf! .[B,D]2 | [B,D]2 [B,DF]2 [B,D^F]2 | z2 =B,2 C2 | .[C,,C,]2 .[CE]2 .[CE]2 | %87
 .[CE]2 .[CE]2 .[CE]2 | [CE]2 [CE]4 | [CE]4[K:treble]!mp! dc | [B,DB]2 .[B,_DF]2!p! .[B,DF]2 | %91
 .[B,_D]2!mp! .[B,DE]2 .[B,DE]2 |!f! .[B,_DE]2 .[A,DE]2 .[A,DE]2 | _D4 C2 | %94
[K:bass] z2!p! [F,,F,]2 [_D,,_D,]2 | [C,,C,]4 [=B,,,=B,,]2 |!ped! [C,,C,]2 z2!ped-up! =E2 | %97
 z2[K:treble] .[CGB]2 .[CGB]2 | [F=A]2[K:bass] .[F,,F,]2 .[F,,F,]2 | z2 .[F,,F,]2 .[F,,F,]2 | %100
 z2 .[F,,F,]2 .[F,,F,]2 | .[F,,F,]2 .[F,,F,]2 .[F,,F,]2 | F,,F,F,F, .[EG].[DF] | %103
 .[CE].[DF].[EG].[DF].[CE].[B,D] | .[=A,C].[B,D].[CE].[DF].[EG].[DF] | %105
 .[CE].[DF].[EG].[DF].[CE].[B,D] | .[=A,C]!p!.[B,D].[CE].[DF].[CE].[B,D] | %107
 .[=A,C].[G,B,]!mp!.[F,A,].[E,G,]!mf!.[D,F,].[C,E,] | %108
 .[B,,D,] .[F,,F,].[B,,B,].[D,D].[B,,B,].[F,,F,] | %109
 .[B,,B,].[F,,F,].[B,,B,]!f!.[D,D].[B,,B,].[F,,F,] | %110
 .[=A,,=A,].[F,,F,].[A,,A,]!f!.[C,C].[A,,A,].[F,,F,] | %111
 .[C,C].[F,,F,]!ff!.[=A,,=A,]!f!.[C,C].[E,E].[C,C] | [B,,B,][F,,F,][B,,B,]!f![D,D][B,,B,][F,,F,] | %113
 [B,,B,][F,,F,][B,,B,]!f![D,D][B,,B,][F,,F,] |!ped! [=A,,=A,][F,,F,][A,,A,]!f![C,C][A,,A,][F,,F,] | %115
 [C,C][F,,F,][E,E]!f![C,C]!ped-up![=A,,=A,][E,,E,] | %116
!f!!ped! z2 [F,DF]2 .[D,,D,]!ped-up!.[^C,,^C,] | %117
!mf! .[D,,D,].[=A,,,=A,,].[B,,,B,,] =C,,/=C,/^C,,/^C,/D,,/D,/ | %118
 E,,/E,/D,,/D,/ C,,/!f!C,/!mf!=E,,/=E,/ F,,/F,/_E,,/_E,/ | %119
 D,,/!f!D,/!mf!^F,,/^F,/ G,,/G,/=F,,/=F,/ E,,/!f!E,/!mf!G,,/G,/ | %120
 =A,,/=A,/G,,/G,/ F,,/!f!F,/!mf!A,,/A,/ B,,/B,/A,,/A,/ | %121
 G,,/G,/^F,,/^F,/ G,,/!f!G,/=F,,/=F,/ =E,,/=E,/_E,,/_E,/ | [D,,D,]2 .[^F,,D,^F,]2 .[G,,D,G,]2 | %123
 z2 .[D,,D,]2 .[E,,E,]2 | z2 .[=E,,C,=E,]2 .[F,,C,F,]2 | z2 .[^F,,D,^F,]2 .[G,,D,G,]2 | %126
 z2 .[D,,D,]2 .[E,,E,]2 | z2 .[=E,,C,=E,]2 z2 | .[=E,,C,=E,]2 z2 .[E,,C,E,]2 | %129
 z2 .[=E,,C,=E,]2 z2 | .[=E,,C,=E,]2 z2 .[E,,C,E,]2 |!p! F,2 B,2 D2 |!ped! [_D=E]6!ped-up! | %133
 F,2 B,2 =D2 |!mf!!ped! [_D=E]6-!ped-up! | [DE] z x2 x2 | _A,,2 x2 _A, x | x2 x2 x2 | x2 x2 x2 | %139
!pp!!ped! E,/G,/E,/G,/ E,/G,/E,/G,/!ped-up! E,/!p!G,/E,/G,/ | %140
!ped! C,/G,/E,/G,/ E,/G,/!mp!C,/G,/!ped-up! D,/=B,/E,/C/ | %141
 [F,,F,]!mf! [F,_B,D]!ped![F,_B,D]!f![F,_B,D] [D,D][B,,B,]!ped-up! | %142
!ped! [F,,F,] [F,=A,CF][F,A,CF][F,A,CF][F,A,CF][F,A,CF]!ped-up! | .[B,,D,]2 .F,2!f! .D,2 | %144
 .[B,,,B,,]2 .G,2!f! .E,2 | .[B,,,B,,]2 .F,2!f! .D,2 | %146
 .[B,,E,_G,=A,]2 .[B,,E,G,A,]2 .[B,,E,G,A,]2 | [D,F,]2 z2 z2 | x2 x2 D,F, | _A,4 _C2 | %150
 A,4!pp! F,2 | D,4!pp! [_C,,_C,]2 | [=A,,,=A,,]4 [B,,,B,,]2 | [_A,,,_A,,]6- | [A,,,A,,]6 | %155
 [G,,,G,,]6- | [G,,,G,,]6 | [A,,,A,,]6- | [A,,,A,,]6 | .[G,,,G,,]2 z2 z2 | .[G,,G,]2 z2 z2 | %161
 .[G,,G,]2 z2 z2 | .[G,,G,]2 z2 z2 |"^cresc." .[G,,G,]2!p! z2!mp! z2 | [G,,,G,,]2!>(! z2 z2!>)! | %165
!ped! G,,!pp! G,"^dolce"[=B,D]G,[B,D]G, | [=B,D]G,[B,D]F,[B,D]F,!ped-up! | %167
!ped! =B,, G,[DF]G,[DF]G,!ped-up! | G,, .G,.=A,.=B,.C.D |!ped! C, G,[C=E]G,[CE]G, | %170
 [C=E]G,[CE]G,[CE]G,!ped-up! |!ped! =E, G,[C=E]G,[CE]G,!ped-up! | C, .=A,.=B,.C.D.=E | %173
!ped! D, G,[=B,F]G,[B,F]G,!ped-up! |!ped! G,, G,[=B,F]G,[B,F]G,!ped-up! | %175
!p! .G,,.=A,,.=B,,.C,.D,.=E, | .F,.D,.=B,,.[G,,,G,,].[=A,,,=A,,].[=B,,,B,,] | [C,,C,]4 [_E,,_E,]2 | %178
 [C,,C,]4 [G,,,G,,]2 | z/!ppp! G,/E,/G,/ E,/G,/E,/G,/ E,/G,/E,/G,/ | %180
"^cresc." E,/A,/E,/A,/ E,/A,/E,/A,/!mp! [A,,,A,,]2 | [^C,,^C,]4 [=E,,=E,]2 | %182
 [^C,,^C,]4 [^G,,,^G,,]2 |!pp!!ped! =E,/^G,/E,/G,/ E,/G,/E,/G,/ E,/G,/E,/G,/!ped-up! | %184
!ped! =E,/=A,/E,/A,/!p! E,/A,/E,/A,/!ped-up!!mp! =A,,,/=A,,/A,,,/A,,/ | %185
!ff!!ped! [D,,D,]4!ped-up! [F,,F,]2 |!ped! [D,,D,]4!ped-up! [=A,,,=A,,]2 | %187
!ped! [D,,D,]4!ped-up! [F,,F,]2 |!ped! [D,,D,]4!ped-up! [=A,,,=A,,]2 | %189
!ped! [=E,,=E,]4!ped-up! [G,,G,]2 |!ped! [=E,,=E,]4!ped-up! [=A,,,=A,,]2 | %191
!ped! [=E,,=E,]4!ped-up! [G,,G,]2 |!ped! [=E,,=E,]4!ped-up! [G,,G,]2 | %193
!ped! [^F,,^F,]!pp! .C.C!ped-up! .D.D z |!ped! z .B,.B,!ped-up! .D.D z | %195
"^cresc."!ped! z D/E/!ped-up! .DD/E/!p! .DD/E/ |!ped! DD/E/!ped-up! D!mp!D/E/ DD | %197
!ff!!ped! [G,,B,,D,G,]4!ped-up! [B,,B,]2 |!ped! [G,,G,]4!ped-up! [D,,D,]2 | %199
!ped! [G,,B,,D,G,]4!ped-up! [B,,B,]2 |!ped! [G,,G,]4!ped-up! [D,,D,]2 | %201
!ped! [=A,,D,=A,]4!ped-up! [C,C]2 |!ped! [=A,,=A,]4!ped-up! [D,,D,]2 | %203
!ped! [=A,,D,=A,]4!ped-up! [C,C]2 |!ped! [=A,,D,=A,]4!ped-up! [C,C]2 | %205
 [=B,,G,=B,]!p! G,/_A,/ .G, z z2 | z G,/A,/ .G, z z2 |"^cresc." z G,/A,/ .G,G,/A,/ .G,G,/A,/ | %208
 G,G,/A,/ G,!mp!G,/A,/ G, z |!p! z C/_D/ .C z z2 | z C/_D/ .C z z2 | %211
"^cresc." z!mp! C/_D/ .CC/D/ .CC/D/ | z!mf! C/_D/ .CC/D/ C z | z F,/_G,/ F,.F.F z | %214
 z B,/C/ .B,.B,.B, z | z E,/F,/ .E,.E.E z | z A,/B,/.A,.A,.A,.A, | %217
!ff! [F,,,F,,]!ped![F,,F,] [F,,F,][F,,F,][F,,F,][F,,F,]!ped-up! | %218
!ped! [_F,,_F,][F,,F,][F,,F,][F,,F,][F,,F,][F,,F,]!ped-up! | [E,,E,]!pp!!ped! E,[G,B,]E,[G,B,]E, | %220
!pp! [G,B,]!ped-up!E,[G,B,]E,[G,B,]E, | G,,!ped! E,[G,B,]E,[G,B,]E, | %222
 E,,!ped-up! E,[G,B,]E,[G,B,]E, | A,,!ped! E,[A,C]E,[A,C]E, | [A,C]!ped-up!E,[A,C]E,[A,C]E, | %225
 C,!ped! E,[A,C]E,[A,C]E, | A,,!ped-up! E,[A,C]E,[A,C]E, | G,, .E,.G,.A,.B,.C | _D3 .C.B,.A, | %229
 G,A,.B,.A,.G,.F, | .E,.F,.E,._D,.C,.B,, | .A,,2 [_D,_D]3 [C,C] | [=B,,=B,]2 [C,C]3 [F,,F,] | %233
 [=E,,=E,]2!ped! [_B,,_B,]3 [G,,G,]!ped-up! | [=E,,=E,]2!ped! [G,,G,]3 [C,,C,]!ped-up! | %235
 F,,F,/G,/ .A,.F,._D,.C, | .=B,,(3G,,/=A,,/B,,/ .C,.=D,.C,._B,, | x2 x4 | CC/=B,/ .C.D.E.^F | %239
 G[K:treble] G/=A/ .B.G.E.D | .C^F/G/ .=A.F.D[K:bass] [C,D,] |!mp! [B,,D,]2!mf! G,3!mp! B,, | %242
 .=A,,.^F, .G,,.G,.[E,G,].[D,=F,] | [^C,=E,]2 [^C=E]3 [CE] | %244
 .D2 z!mp! [D,F,]/[^C,=E,]/ .[D,F,].[C,_E,] | %245
 .[=B,,D,]2!mf! z!mp! [^C,=E,]/[B,,D,]/ .[=C,E,].[=A,,C,] | %246
!mf! .D,D,/^C,/ .D,!mf!.[=C,=E,].[_B,,D,].[=A,,C,] |!f! [^G,,=B,,]2!ff!!ped! [D,,G,,B,,D,]4- | %248
 [D,,G,,B,,D,]6- | [D,,G,,B,,D,]2!ff! [D,,^G,,=B,,D,]4 | %250
!ff! [D,,F,,^G,,=B,,D,]4 [D,,F,,G,,B,,D,]2- | [D,,F,,G,,B,,D,]2 [D,,F,,^G,,=B,,D,]4 | %252
 [D,,F,,^G,,=B,,D,]4!ff! [D,,G,,B,,D,]2!ped-up! |!f! [C,,C,]2!ped! [C,=E,=A,C]4- | [C,E,A,C]6- | %255
 [C,E,A,C]2 [C,,=E,,=A,,C,]4 |!ff! [C,,=E,,=A,,C,]4 [C,,E,,A,,C,]2- | %257
 [C,,E,,A,,C,]2!ff! [C,=E,=A,C]4 | [C,=E,=A,C]4 [C,E,A,C]2!ped-up! | %259
!ped! [=B,,,=B,,]2 [B,,^F,=A,=B,]4- | [B,,F,A,B,]6- | [B,,F,A,B,]2 [=B,,^F,=A,=B,]4 | %262
 [=B,,^F,=A,=B,]4!ff! [B,,F,A,B,]2- | [B,,F,A,B,]2 [=B,,^F,=A,=B,]4 | %264
 [=B,,^F,=A,=B,]4!ff! [B,,F,A,B,]2!ped-up! | .[^A,,,^A,,]2!ped! [A,,^C,^A,]4- | [A,,C,A,]6- | %267
 [A,,C,A,]2 [^A,,^C,^A,]4 | [^A,,^C,^A,]4 [A,,C,A,]2- | [A,,C,A,]2 [^A,,^C,^A,]4 | %270
 [^A,,^C,^A,]4 [A,,C,A,]2!ped-up! | .=C,2!ped! [=A,,^D,^F,=A,]4 | %272
 [=A,,^D,^F,=A,]4 .[A,,D,F,A,]2!ped-up! |!f! .[G,,,G,,]2!ped! [G,,C,=E,G,]4 | %274
 [G,,C,=E,G,]4 .[G,,C,E,G,]2!ped-up! |!mf! .[=A,,C,=A,]2!ped! [A,C=E]4 | .[=A,,C,=A,]2 [A,C=E]4 | %277
!mf! .[=A,,C,=A,]2 [A,C=E]4 | [=A,C=E]4 [A,CE]2!ped-up! | z2!f! ^F,2!mf! F,2 | %280
"^decresc." ^F,2!mp! F,2 F,2 |!p! ^F,2 F,2 F,2 | ^F,2 F,2 F,2 |!p!!ped! [=E,,=E,]2 =E2 ^F2 | %284
 z2!ped-up!!p! z2 =E2 | ^D2 =D2 ^C2 | =B,4 ^C^D | =E2 E2 ^F2 | z2 z2 =E2 | ^D2 =D2 ^C2 | %290
"^cresc." z!mp! F =E=D=C=B, | z2 [=A,C]2 [=B,D]2 | [C=E]3 [=B,D] C2 | %293
 [^G,=B,]2 [=G,B,]2 [^F,=A,]2 | ^G,4 [^F,=A,][G,=B,] | C2 [=A,C]2 [=B,D]2 | [C=E]3 [=B,D] C2 | %297
 [=E,^G,=B,]2 [=G,B,]2 [^F,=A,]2 | %298
 [=E,G,]!mp!"^cresc." [=E,,E,][G,,G,]!mf![F,,F,][E,,E,]!f![D,,D,] | %299
!f!!ped! [C,,C,]4 [=E,,=E,]2!ped-up! |!ped! [C,,C,]4 [G,,,G,,]2!ped-up! | %301
!ped! [C,,C,]2 .[=E,,=E,]2 .[G,,G,]2 | [C,,C,]4!ped-up! [G,,,G,,]2 | %303
!ped! .[C,,C,]2 .[=E,,=E,]2 .[G,,G,]2 |!f! [C,C]2 [=E,=E]2 [G,G]2!ped-up! | %305
 [G,,G,]!ped! .[F,F].[D,D].[=B,,=B,] .[G,,G,].[F,,F,] | %306
 .[D,,D,].[F,,F,].[D,,D,].[=B,,,=B,,].[G,,,G,,].[B,,,B,,]!ped-up! | %307
!ped! .[C,,C,]2 .[_E,,_E,]2 .[G,,G,]2!ped-up! |!ped! .[C,C]2 .[E,E]2 .[G,G]2!ped-up! | %309
 [G,,G,]!ped! .F.D.=B,.G,.[F,G,] | .[D,G,].[F,G,].[D,G,].[=B,,G,].[G,,G,].[B,,G,]!ped-up! | %311
!ped! [C,,C,]2 [E,,E,]2!ped-up! [G,,G,]2 |!ped! [A,,A,]4 [C,,C,]2!ped-up! | %313
!ped! [_D,,_D,]2 [F,,F,]2!ped-up! [=A,,=A,]2 |!ff!!ped! [B,,B,]4!f! [=D,,=D,]2!ped-up! | %315
!ped! .[E,,E,]2 .[G,,G,]2 .[B,,B,]2 | .[E,E]2 .[G,G]2 .[B,B]2!ped-up! | %317
!ped! [B,,B,].A.F.D.B,.[A,B,] | .B,.B,.B,.B,.B,.B,!ped-up! | %319
!ff!!ped! .[E,,E,]2 .[_G,,_G,]2 .[B,,B,]2!ped-up! |!ped! .[E,E]2 .[_G,_G]2 .[B,B]2 | %321
[K:treble] .[Ee]2!ped-up![K:bass] E2 F2 | z2 z2 E2 | D2 _D2 C2 | B,4 C=D | %325
!mf! [E,E] B,2!mp!"^descresc." B,2 B, | B,!p!_C[E,_G,]_C[E,G,]_C | %327
"^dolce"!ped! [F,A,]_CF,A,F,A,!ped-up! | [_D,F,]"^cresc."A,!mp![D,F,]A,[D,F,]A, | %329
!p!!ped! _G,_D,G,D,G,D, | _G,_D,G,D,G,!ped-up!D, |!ped! A,_D,A,D,A,D, | _D,,_D,A,D,A,!ped-up!D, | %333
!mf!!ped! [_G,,_G,]2 [G,,G,]2 [A,,A,]2!ped-up! |!ped! [B,,B,]3 [A,,A,] [_G,,_G,]2!ped-up! | %335
!ped! [F,,F,]6!ped-up! |!ped! [E,,E,]6!ped-up! |!ff!!ped! .[B,,,B,,]2!f! .D,,2 .B,,,2!ped-up! | %338
!ff!!ped! .F,,2!f! .B,,,2!ff! !^!B,,2!ped-up! |!f!!ped! .B,,,2 .D,2 .B,,,2!ped-up! | %340
!ped! [F,B,DF]6!ped-up! |!mf!!ped! .B,,,2 .E,,2 .B,,,2!ped-up! |!ped! ._G,,2 .B,,,2 _G,2!ped-up! | %343
!ped! .B,,,2 .E,2 .B,,,2!ped-up! |!f!!ped! [_G,B,E_G]6!ped-up! | %345
!mf!!ped! .C,,2 .E,,2 .C,,2!ped-up! |!ped! .A,,2 .C,,2 A,2!ped-up! |!ped! .C,,2 E,2 .C,,2!ped-up! | %348
!f!!ped! [A,C_G]6!ped-up! |!mf!!ped! ._D,,2 .F,,2 .D,,2!ped-up! |!ped! .B,,2 ._D,,2 A,2!ped-up! | %351
!ped! .A,2 .F,2 ._D,2!ped-up! |!f!!ped! [A,FA]6!ped-up! | %353
!mf!!ped! .=D,,2"^cresc." .F,,2 .D,,2!ped-up! |!ped! .B,,2 .D,,2 B,2!ped-up! | %355
!ped! .D,,2 F,2 .D,,2!ped-up! |[K:treble]!ped! [B,FB]6!ped-up! | %357
[K:bass]!mf!!ped! .E,,2 _G,,2 .E,,2!ped-up! |!mf!!ped! .B,,2 .E,,2 .E,2!ped-up! | %359
!ped! .E,,2 ._G,2 .E,,2!ped-up! |!ped! E4 _G2!ped-up! |!ff!!ped! .[_C,,_C,]2 .[E,,E,]2 .[C,,C,]2 | %362
 .[_G,,_G,]2 .[_C,,_C,]2 .[C,_C]2!ped-up! |!ped! .[_C,,_C,]2 .[E,E]2 .[C,,C,]2 | %364
 .[_G,_G].[E,E].[_C,_C].[_G,,G,].[E,,E,].[G,,G,] |!f! [_C,,_C,]2 z2!ped-up! z2 |!ped! [_CE]6 | %367
 [_CE]6!ped-up! | [_C,,_C,]2 [E,,E,]2 [_G,,_G,]2 |!ped! [=CE]6 | [=CE]6 | [=CE]6!ped-up! | %372
 [C,,C,]2 [E,,E,]2 [=A,,=A,]2 |"^decresc." [D,B,]3!pp! D,,F,,B,, | [D,B,]3 D,,F,,B,, | %375
 [E,B,]3 E,,_G,,B,, | [E,B,]3 E,,_G,,B,, | [B,,B,]2 z2 .[B,,,B,,]2 | z2 z2 .[B,,,B,,]2 | %379
 z2 z2 .[B,,,B,,]2 | z2 z2 .[B,,,B,,]2 |!ped! z6 | z6!ped-up! |!pp! z2 z2 .[B,,,B,,]2 | %384
 z2 z2 .[B,,,B,,]2 |!ppp!!ped! z6 | z6!ped-up! |!pp! z2 z2 .[B,,,B,,]2 | z2 z2 .[B,,,B,,]2 | %389
!ped! z6 | z6!ped-up! |!ped! z6 | z6!ped-up! |!p!!ped! E,4 G,2 | E,4 B,,2!ped-up! | %395
!f!!ped! [B,,,B,,][B,,,B,,][B,,,B,,][B,,,B,,][B,,,B,,][B,,,B,,] | %396
!ff! [B,,,B,,][B,,,B,,][B,,,B,,][B,,,B,,][B,,,B,,][B,,,B,,]!ped-up! |!f! E,4!p! G,2 | E,4 B,,2 | %399
 E,2 G,2 B,2 | E,4 D,2 |!mp!!ped! z!pp! B,"^cresc."=EB,EB, |=EB,EB,EB,!ped-up! | %403
!p!!ped! z B,CB,CB,!ped-up! |!ped! =A,CA,CA,C!ped-up! | G,CB,CB,C | G,CB,CB,C | %407
 [F,,F,]!pp!"^dolce"!ped! [F,=A,C][F,A,C][F,A,C][F,A,C][F,A,C] | %408
!pp! [F,=A,C][F,A,C][F,A,C][F,A,C][F,A,][F,A,]!ped-up! | [F,=A,]2 z2!mp! .[C,,C,]2 | %410
 .[F,,F,]2 .[=A,,=A,]2 .C,2 | .[C,C]2 z2 .[B,,B,]2 | .[G,,G,]2 .[=E,,=E,]2 .[C,,C,]2 | %413
 F,,!pp!"^cresc."!ped! [F,=A,C][F,A,C][F,A,C][F,A,C][F,A,C]!ped-up! | %414
!ped! [F,=A,C][F,A,C]!p![F,A,C][F,A,C][F,A,C][F,A,C]!ped-up! | %415
 [_D,,_D,]!pp! [F,_A,][F,A,][F,A,][F,A,][F,A,] | %416
 [_D,F,A,][D,F,A,][D,F,A,][D,F,A,][D,F,A,][D,F,A,] | [_D,F,A,]2 z2!mp! .[D,_D]2 | %418
 .[A,,A,]2 .[F,,F,]2 .[_D,,_D,]2 | .[C,,C,]2 z2 .[C,,C,]2 | .[E,,E,]2 .[A,,A,]2 .[C,C]2 | %421
 .[_D,_D]2"^cresc." z [_D,,D,][D,,D,][D,,D,] | [_C,,_C,]2"^decresc."!p! [C,,C,]2 [C,,C,]2 | %423
!p! [B,,,B,,]4 [D,,D,]2 | [B,,,B,,]4 [F,,,F,,]2 |"^cresc." [B,,,B,,].D,.F,!mp!.B,,.D,.F, | %426
 .A,.D,.F,.A,.C!mf!.B, | .A,.B,.A,.G,.[F,A,].[E,G,] | %428
 .[D,F,].[C,E,]!f!.[B,,D,].[B,,E,].[B,,F,].[B,,A,] | %429
!ped! [E,,E,]2!mp! [E,G,]/B,/[E,G,]/B,/ [E,G,]/B,/[E,G,]/B,/ | %430
 [E,G,]/B,/[E,G,]/B,/ [E,G,]/B,/[E,G,]/B,/ [E,G,]/B,/[E,G,]/!ped-up!B,/ | %431
!ped! [E,G,]/B,/[E,G,]/B,/ [E,G,]/B,/[E,G,]/B,/ [E,G,]/B,/[E,G,]/B,/ | %432
 [E,G,]/B,/[E,G,]/B,/ [E,G,]/B,/[E,G,]/B,/!ped-up! [_E,G,]/!mp!_D/[E,G,]/D/ | %433
!ped! [E,A,]/C/[E,A,]/C/ [E,A,]/C/[E,A,]/C/ [E,A,]/C/[E,A,]/C/ | %434
 [E,A,]/C/[E,A,]/C/ [E,A,]/C/[E,A,]/!ped-up!C/ [E,=A,]/C/[E,A,]/C/ | %435
!ped! [E,B,]/_D/[E,B,]/D/ [E,B,]/D/[E,B,]/D/ [E,B,]/D/[E,B,]/D/!ped-up! | %436
!ped! [E,C]/E/[E,C]/E/ [E,C]/E/[E,C]/E/ [E,C]/E/[E,C]/E/!ped-up! | %437
!ped! [E,A,_C]/D/[E,A,C]/D/ [E,A,C]/D/[E,A,C]/D/ [E,A,C]/D/[E,A,C]/D/ | %438
 [E,A,_C]/D/[E,A,C]/D/ [E,A,B,]/D/[E,A,B,]/D/ [E,A,B,]/D/[E,A,B,]/D/!ped-up! | %439
!ff!!ped! [E,,E,]!f![E,,E,][E,,E,][E,,E,]!ped-up!!ff! [G,,G,]!f![G,,G,] | %440
!ped! [E,,E,][E,,E,][E,,E,][E,,E,]!ped-up!!ff! [B,,,B,,]!f![B,,,B,,] | %441
!ped! [E,,E,][E,,E,][G,,G,][G,,G,]!ped-up![B,,B,][B,,B,] | %442
!ped! [E,,E,][E,,E,][E,,E,][E,,E,]!ped-up!!ff! [G,,,G,,]!f![G,,,G,,] | %443
!ped! [C,,C,][C,,C,][E,,E,][E,,E,]!ped-up! [G,,G,][G,,G,] | %444
!ped! [C,,C,][C,,C,][C,,C,][C,,C,]!ped-up!!ff! [B,,,B,,]!f![B,,,B,,] | %445
!ped! [A,,,A,,]!mp! [A,C][A,C][A,C][A,C][A,C]!ped-up! | %446
!ped! [=A,,=A,] [A,CF][A,CF][A,CF][A,CF][A,CF]!ped-up! | [B,,B,]!p!!ped! B,[DF]B,[DF]B,!ped-up! | %448
!ped! [DF]B,[DF]B,[DF]B,!ped-up! | .B,,,[B,,D,].D,,[B,,D,].F,,[B,,D,] | %450
 .B,,[F,B,].D,[B,D].F,[B,D] | [B,,E,G,]!ped! B,[EG]B,[EG]B,!ped-up! | %452
!ped! [EG]B,[EG]B,[EG]B,!ped-up! | .B,,,[G,B,] .E,,[G,B,] .G,,[G,B,] | .B,,B, .G,[B,E] .E,[G,B,] | %455
!mf! z!mp! D, [F,A,]D, F,D, |!mf! F,!mp!D, [F,A,]D, [F,A,]D, | [F,A,]2 [=C,=C]3 [B,,B,] | %458
 .[A,,B,,A,]2 .[G,,B,,G,]2 .[F,,B,,F,]2 | z2 E2 D_D | C2 B,2 A,2 | .G,.B,.A,.G,.F,.E, | %462
 .D,.E,.F,.B,,.C,.D, | .E,.E.EED_D | CB,.A,.C.B,.A, | .G,.B,.A,.G,.F,.E, | .D,.E,.F,.E,.D,.C, | %467
!f!!ped! [B,,D,]2 [=B,DFA]2 z2!ped-up! | z2 z2 z .[=B,,,=B,,] | %469
!ped! .[C,,C,]2 .[C,E,G,C]2!ped-up! z2 | z2 z2 z .[C,,C,] | %471
!ped! .[B,,,B,,]2 [B,,_D,=E,G,]2!ped-up! z2 | z2 z2 z .[B,,,B,,] | %473
 .[A,,,A,,] [A,,,A,,]2 .[=A,,,=A,,] .[B,,,B,,].[=B,,,=B,,] | %474
 .[C,,C,] [C,,C,]2 .[C,,C,].[D,,B,,D,].[D,,D,] | .[E,,E,].[E,E].[_D,E,_D].[D,E,D].[C,E,C].[C,E,C] | %476
 .[_C,E,_C].[=C,E,=C].[B,,E,B,].[B,,E,B,].[G,,E,G,].[G,,E,G,] | %477
 .[A,,E,A,]!ped! [A,,E,][A,,E,][A,,E,][A,,=E,]!ped-up![A,,E,] | %478
!ped! [A,,F,][A,,=E,][A,,G,][A,,F,]!ped-up![A,,B,][A,,A,] | %479
!ped! [B,,G,][B,,B,][B,,=A,]!ped-up![B,,_A,][B,,G,][B,,F,] | %480
!ped! [B,,E,][B,,E,G,][B,,E,G,][B,,E,G,][B,,E,G,]!ped-up![B,,E,G,] |!ped! z!ff! GAGF!ped-up!E | %482
"^cresc."!ped! DEFED!ped-up!C |!ped! B,[=A,=A] [_A,_A][G,G][F,B,F]!ped-up![E,B,E] | %484
!ped! [D,B,D][C,C][B,,B,][A,,B,,A,][G,,B,,G,][F,,B,,F,]!ped-up! | [E,,E,]2!ped! .[EG]2!mp! .[EG]2 | %486
"^cresc." .[EG]2 .[EG]2!mf! .[EG]2 | [EG]2!ped-up! [EG]2 E2 | E2 =E2 F2 | %489
!p! F,,2!ped! .[F,A,]2 .[F,A,]2 |!mp! .[F,A,]2 .[F,A,]2 .[F,A,]2!ped-up! | [F,A,]2 [F,A,]4 | %492
!>(! [F,A,]4 [D,A,]2!>)! |!p! [E,G,E]2 .[E_G]2 .[EG]2 |!ped! .[E_G]2!mp!"^cresc." .[EG]2 .[EG]2 | %495
 .[E_G]2!ped-up!!mf! .[_DG]2 .[DG]2 | _G4 F2 | z6 | z2[K:treble]!p! .[_D=GB]2 .[DGB]2 | B4 =A2 | %500
 z2[K:bass] .[F,C]2 .[F,C]2 | B,2 .F,2 .F,2 | z2 .[B,,,B,,]2 .[B,,,B,,]2 | %503
 z2 .[B,,,B,,]2 .[B,,,B,,]2 | .[B,,,B,,]2 .[B,,,B,,]2 .[B,,,B,,]2 | B,4 .A,.G, | %506
 .F,.G,.A,.G,.F,.E, |"^cresc." .D,!p!.E,.F,.G,.A,.G, | .F,!mp!.G,.A,.G,.F,.E, | %509
 .[B,,D,].[B,,E,].[B,,F,].[B,,B,].[B,,A,].[B,,G,] | %510
 .[B,,F,]!mf!.[B,,E,].[B,,D,].[A,,C,].[G,,B,,].[F,,A,,] | %511
!f!!ped! [E,,,E,,] B,,[E,G,B,]B,,[E,G,B,]B,,!ped-up! | [E,G,B,]B,,[E,G,B,]!f!B,,[E,G,B,]B,, | %513
 [D,A,B,]B,,!ff!!ped![D,A,B,]!f!B,,[D,A,B,]B,,!ped-up! | %514
 [F,B,]B,,!ped![A,B,]!f!B,,[D,B,]B,,!ped-up! | [E,,B,,] B,,!ped![E,G,B,]!f!B,,[E,G,B,]B,,!ped-up! | %516
 [E,G,B,]B,,!ped![E,G,B,]!f!B,,[E,G,B,]B,,!ped-up! | %517
 [D,A,B,]B,,!ped![D,A,B,]!f!B,,[D,A,B,]B,,!ped-up! | [F,B,]B,,!ped![A,B,]!f!B,,[D,B,]B,,!ped-up! | %519
 [G,,G,]4- [G,,G,].[^F,,^F,] | .[G,,G,].[D,,D,].[E,,E,].[F,,F,].[_G,,_G,].[=G,,=G,] | %521
 .[A,,A,].[G,,G,]!ff!.[F,,F,]!f!.=A,.B,._A, |!ff! .[G,,G,]!f!.=B,.C._B,.[A,,A,]!f!.C | %523
 .D.C.[B,,B,]!f!.D.E.[D,D] | .[C,C].[=B,,G,].[C,G,].[_B,,C,].[=A,,C,].[_A,,C,] | %525
 .[G,,=B,,]2 .[B,,G,=B,]2 .[C,G,C]2 | z2 .[G,,E,G,]2 .[A,,E,A,]2 | z2 .[=A,,F,=A,]2 .[B,,F,B,]2 | %528
 z2 .[=B,,G,=B,]2 .[C,G,C]2 | z2 .[G,,E,G,]2 .[A,,E,A,]2 | z2 .[=A,,E,=A,]2 z2 | %531
 .[=A,,E,=A,]2 z2 .[A,,E,A,]2 | z2 .[=A,,E,=A,]2 z2 | .[=A,,E,=A,]2 z2 .[A,,E,A,]2 | %534
!p! E,2 =G,2 B,2 | =A,2 _G,2 E,2- | E,2 =G,2 B,2 | =A,2 _G,2 E,2 | .[C,,C,].E,._A,.C,.E,.A, | %539
 .[_D,,_D,].F,.A,.D,.F,.A, | .[=D,,=D,].F,.B,.D,.F,.B, | .[E,,E,].B,.E.[E,B,].[E,E].[E,=B,] | %542
"^cresc."!ped! z/ C/A,/C/ A,/C/!mp!A,/C/ A,/C/A,/C/!ped-up! | %543
!ped! z/ C/[F,A,]/C/ [F,A,]/C/!mf![F,A,]/C/!ped-up! [G,B,]/=E/[A,C]/F/ | %544
!ped! B,G,/B,/!f! E,/B,/B,,/B,/ [G,,G,][E,,E,]!ped-up! | %545
!ped! B,,,/B,,/B,,,/B,,/B,,,/B,,/B,,,/B,,/B,,,/B,,/B,,,/B,,/!ped-up! | %546
 [E,,E,]2 .[B,,B,]2!f! .[G,,G,]2 | [E,,E,]2 .C2 .A,2 | [E,,E,]2 .B,2!f! .G,2 | %549
 .[E,A,_CD]2 .[E,A,CD]2 .[E,A,CD]2 | [G,B,E]4!mp! G2 |!>(! E4 B,2 |!ped! E6-!>)! | %553
 E3!pp! E,!ped-up!G,B, |!ped! [E,E]6- | [E,E]6!ped-up! |!ped! _D4 F2 | _D4 A,2!ped-up! | %558
!ped! [_D,_D]6- | [D,D]6!ped-up! | %560
!ff!!ped! [C,=E,G,]/C/[C,E,G,]/C/[C,E,G,]/C/[C,E,G,]/C/[C,E,G,]/C/[C,E,G,]/C/ | %561
 [C,=E,G,]/C/[C,E,G,]/C/[C,E,G,]/C/[C,E,G,]/C/[C,E,G,]/C/[C,E,G,]/C/!ped-up! |!ped! C6- | %563
 C6-!ped-up! | C4 =E2 | C4 G,2 |!p! C4!ped! =E2 | C4 G,2!ped-up! |!ped! !arpeggio![=B,,G,D]4 F2 | %569
 D4 G,2 | D4 F2 | D4 G,2!ped-up! |!ped! C4 G2 | =E4 C2!ped-up! |!ped! z2 z2 A2 | F4 C2!ped-up! | %576
 [=E,G,C]2 z2 z2 | z6 | z .A,.G,.A,.B,.=B, | .C.=B,.C[I:staff -1].D._E.=E |[I:staff +1] z2 F2 G2 | %581
 A3 G F2 | =E2 [_EG]2 [=DF]2 | =E4 [=DF][EG] | x2 F2 G2 | A3 G F2 | %586
"^cresc." z2!mp! [B,,,B,,]2 [C,,C,]2 | [D,,D,]3 [C,,C,]!mf! [B,,,B,,]2 | [E,,E,]2 E2 F2 | %589
!f! x3 F E2 | D2 _D2 C2 | B,4 C=D | E2 E2 F2 |!f! x3 F E2 |!mp!"^decresc." D6 | _D6 | C6 | _C6 | %598
 B,6 | B,6 | =A,6 |!p! _A,6- |!p! A,2 .D,,2 .B,,,2 | .F,,2 .B,,,2 .B,,2 |!ped! .B,,,2 .D,2 .B,,,2 | %605
!mp! F,6!ped-up! |!p! .B,,,2 .E,,2 .B,,,2 | ._G,,2 .B,,,2 .B,,2 |!ped! .B,,,2 .E,2 .B,,,2!ped-up! | %609
!mp!!ped! [_G,,_G,]6-!ped-up! | [G,,G,]2!p! .[F,,F,]2 .[B,,,B,,]2 |!mp!!ped! [_A,,_A,]6-!ped-up! | %612
!ped! [A,,A,]2!p! .[G,,G,]2!ped-up! .[B,,,B,,]2 |!f! [B,,B,]6- | %614
"^cresc."!ped! [B,,B,]2 .[=A,,=A,]2!mp! .[B,,,B,,]2 | %615
 .[=A,,=A,]2!mf! .[B,,,B,,]2 .[A,,A,]2!ped-up! |!ped! .[B,,,B,,]2 .[=A,,=A,]2!ped-up! .[B,,,B,,]2 | %617
!ped! .[=A,,=A,]2 .[B,,,B,,]2!ped-up! .[A,,A,]2 |!ped! .[B,,,B,,]2"^cresc." .[B,,B,]2 .[B,,,B,,]2 | %619
 .[B,,B,]2 .[B,,,B,,]2 .[B,,B,]2!ped-up! | %620
!ped! .[=B,,,=B,,]2"^decresc." .[B,,=B,]2!ped-up! .[B,,,B,,]2 | %621
!mp!!ped! .[=B,,=B,]2 .[=B,,,B,,]2!ped-up! .[B,,B,]2 | .[C,,C,]2 .[CEG]2 .C,2 | %623
 .[CEG]2 .C,2 .[CEG]2 | .A,,2 .[A,CEF]2 .A,,2 | .[A,CEF]2 .A,,2 .[A,CEF]2 | %626
"^cresc." .B,,2 .[G,B,E]2!mp! .B,,2 | .[G,B,E]2 .B,,2!mf! .[G,B,E]2 | %628
 .B,,2 .[B,,F,A,B,]2 .[B,,F,A,B,]2 |!p! .B,,2 .[B,,F,A,B,]2 .[B,,F,A,B,]2 |!mp! E4!mp! G2 | %631
!mp! E4!mp! B,2 |!mp! E2[K:treble]!mp! G2!mp! B2 | .c.B.A.G.F.E |[K:bass]!mp! F4 x2 | %635
!mp! F4!mp! B,2 |!mp! F2[K:treble]!mp! A2!mp! B2 |!mp![I:staff -1] .d!p![I:staff +1].c.B.A.G.F | %638
[K:bass]!p!!ped! [G,B,E]4 [B,EG]2!ped-up! |!ped! [G,B,E]4 [E,G,B,]2!ped-up! | %640
!mp! [G,B,E]2!p! [B,EG]2 [EGB]2 |!p! E2 [E,,E,]2 [E,,E,]2 | [D,,D,]!p! A,B,FB,A, | %643
 D,A,B,F!mp!B,!p!A, | A,B,DB,A,B, | A,B,D,A,B,A, |!mf!"^cresc."!ped! [E,,E,]4 [G,,G,]2!ped-up! | %647
!ped! [E,,E,]4 [B,,,B,,]2!ped-up! |!ff! [E,,E,]2!mf! [G,,G,]2 [B,,B,]2 | B,2 B,2 B,2 | %650
!ped! [F,,F,]4 [A,,A,]2!ped-up! |!ped! [F,,F,]4 [B,,,B,,]2!ped-up! | %652
!ped! [F,,F,]2 [A,,A,]2 [B,,B,]2!ped-up! |!ped! B,2 B,2 B,2!ped-up! | %654
!f!!ped! [B,,G,B,] E,/F,/ .[G,,G,]G,/A,/!ped-up! .[B,,B,]C/D/ | %655
!ped! .[E,E] G,/A,/ .[B,,B,]C/D/!ped-up! .[E,E]E/F/ | %656
!ff!!ped! [G,G].[F,F].[E,E].[D,D].[C,C].[B,,B,]!ped-up! | %657
 .[A,,A,].[G,,G,].[F,,F,].[E,,E,].[D,,D,].[C,,C,] | %658
!ped! .[B,,,B,,] B,,/C,/ .[D,,D,]D,/E,/!ped-up! .[F,,F,]F,/G,/ | %659
!ped! .[A,,A,]D,/E,/ .[F,,F,]F,/G,/!ped-up! .[A,,A,]A,/B,/ | %660
!ped! .[C,C].[B,,B,].[A,,A,].[G,,G,].[F,,F,].[E,,E,]!ped-up! | %661
 .[D,,D,].[C,,C,].[B,,,B,,].[A,,,A,,].[G,,,G,,].[F,,,F,,] | %662
!ped! [G,,,G,,][G,,,G,,][B,,,B,,][B,,,B,,]!ped-up![_D,,_D,][D,,D,] | %663
!ped! [_D,,_D,]4!ped-up! [G,B,_D=E]2 |!ff!!ped! [A,,,A,,]3!f! [A,,A,][C,C][F,F]!ped-up! | %665
!ff!!ped! [=A,,,=A,,]3!f! [A,,=A,][C,C][E,E]!ped-up! | %666
!ff!!ped! [B,,,B,,]3!f! [B,,B,][E,E][G,G]!ped-up! | %667
!ped! [=B,,,=B,,][D,,D,][F,,F,]!f![B,,,B,,][D,,D,][F,,F,]!ped-up! | %668
!ped! [C,,C,][E,,E,][G,,G,][C,,C,][E,,E,][G,,G,]!ped-up! | %669
!ped! [A,,,A,,][C,,C,][F,,F,][A,,,A,,][C,,C,][F,,F,]!ped-up! | %670
!ff!!ped! [B,,,B,,][E,,E,][G,,G,][B,,B,][E,E][G,G]!ped-up! | %671
!ped! .[B,B]2 .[B,,B,]2 .[B,,,B,,]2!ped-up! | [E,,E,]2 z2 D_D | [CE]2 [B,=D]2 [A,C]2 | %674
 [G,E].B,.A,.G,.F,.E, | .D,.E,.F,.B,,.C,.D, |!mp! E,E"^cresc."EED_D | CB,A,CB,A, | %678
!mf! .[E,G,] .[B,,B,].[A,,A,].[G,,G,].[F,,F,].[E,,E,] | %679
 .[D,,D,].[E,,E,].[F,,F,].[E,,E,].[D,,D,].[C,,C,] |!f!!ped! .[B,,,B,,]2 [B,,D,F,B,]4- | %681
 [B,,D,F,B,]2 [B,,D,F,B,]4- | [B,,D,F,B,]2 [B,,F,A,D]4 | [B,,F,A,D]4 .[B,,F,A,D]2 | %684
 .[B,,F,A,D]2!ff! B,,,/B,,/B,,,/B,,/ B,,,/B,,/B,,,/B,,/ | %685
 B,,,/B,,/B,,,/B,,/ B,,,/B,,/B,,,/B,,/ B,,,/B,,/B,,,/B,,/ | %686
 B,,,/B,,/B,,,/B,,/ B,,,/B,,/B,,,/B,,/ B,,,/B,,/B,,,/B,,/ | %687
 B,,,/B,,/B,,,/B,,/ B,,,!ped-up! z .[B,,D,F,B,]2 | .[E,,B,,E,]2 z2 z2 | .[E,G,B,E]2 z2 z2 | %690
 .[E,,B,,E,]2 z2 z2 |] %691
V:3
 x6 | x6 | x6 | x6 | x6 | x6 | ^C,6- | C,6 | D,6- | D,4 D,2 | E,6 | A,,2 B,,2 C,2 | B,,4 G,2 | %13
 B,,2 B,,2 B,,2 | x6 | x6 | x6 | x4 C,2 | F,2 A,,2 C,2 | F,,2 z2 E,2 | A, x5 | z2 C,2 _C,2 | %22
 z B,,D,F,B,D | x6 | x6 | x6 | x6 | x6 | x6 | x6 | x6 | x6 | x6 | x6 | x6 | x6 | x6 | x6 | x6 | %39
 x6 | x6 | x6 | x6 | x6 | x6 | x6 | F,,2 =A,,2 C,2 | F,2 =A,2 A,2 | F,2 z4 | x6 | F,,2 B,,2 D,2 | %51
 F,2 D2 B,2 | F,2 z4 | x6 | x6 | x6 | x6 | [B,,B,]6 | B,,2 x4 | x6 | B,,6- | B,,6 | x6 | x6 | x6 | %65
 x6 | x6 | x6 | x6 | x6 | x6 | x6 | x6 | x6 | x6 | x6 | x6 | x6 | x6 | x6 | x6 | x2 F,,E,,D,,C,, | %82
 B,,, z z4 | x6 | x6 | [E,,E,]6 | x6 | x6 | z2 z2 F,2 | z2 .F,2[K:treble] [E=A]2 | x6 | x6 | x6 | %93
 [A,E]6 |[K:bass] x6 | x6 | x6 | x2[K:treble] x4 | x2[K:bass] x4 | x6 | x6 | x6 | x6 | F, x5 | %104
 F, x5 | F, x5 | F, x5 | F, x5 | x6 | x6 | x6 | x6 | x6 | x6 | x6 | x6 | [D,,D,]4 x2 | x6 | x6 | %119
 x6 | x6 | x6 | x6 | x6 | x6 | x6 | x6 | x6 | x6 | x6 | x6 | x6 | _G,6 | [F,D]6 | G,6- | %135
 =G, z z G,,B,,_E, | x2 z A,,C,E, | =A,,2 z A,,C,F, | B,,2 z!p! B,F,D, | x6 | x6 | x6 | x6 | x6 | %144
 x6 | x6 | x6 | [B,,B,]6- | [B,,B,]6 | B,,6- | B,,6- | B,,4 x2 | x6 | x6 | x6 | x6 | x6 | x6 | x6 | %159
 x6 | x6 | x6 | x6 | x6 | x6 | x6 | x6 | x6 | x6 | x6 | x6 | x6 | x6 | x6 | x6 | x6 | x6 | x6 | %178
 x6 | C,6- | C,4 x2 | x6 | x6 | C,6- | C,4 x2 | x6 | x6 | x6 | x6 | x6 | x6 | x6 | x6 | x6 | z x5 | %195
 ^F,2 z2 z2 | z ^F,F,F,F,F, | x6 | x6 | x6 | x6 | x6 | x6 | x6 | x6 | x .F,.F, z z2 | %206
 z .E,.E, z z2 | =B,,2 z2 z2 | z =B,,B,,B,,B,,B,, | =A,, .B,.B, z z2 | z .A,.A, z z2 | %211
 z .=E,.E, z z2 | z =E,E,E,E,E, | _E,E,E, z z2 | z _D,D, z z2 | z _D,D, z z2 | z C,C, z z2 | x6 | %218
 x6 | x6 | x6 | x6 | x6 | x6 | x6 | x6 | x6 | x6 | G,E,G,E, z2 | E,6 | x6 | x6 | x6 | x6 | x6 | %235
 x6 | x6 | A,,G,/=A,/ .[=B,D]!p!.[G,B,].[A,C].[B,D] | x6 | x[K:treble] x5 | x5[K:bass] x | x6 | %242
 x6 | x6 | x6 | x6 | x6 | x6 | x6 | x6 | x6 | x6 | x6 | x6 | x6 | x6 | x6 | x6 | x6 | x6 | x6 | %261
 x6 | x6 | x6 | x6 | x6 | x6 | x6 | x6 | x6 | x6 | .[=A,,,=A,,]2 x4 | x6 | x6 | x6 | x6 | x6 | x6 | %278
 x6 | z2 .[=B,,,=B,,]2 .[B,,,B,,]2 | .[=B,,,=B,,]2 .[B,,,B,,]2 .[B,,,B,,]2 | %281
 .[=B,,,=B,,]2 .[B,,,B,,]2 .[B,,,B,,]2 | .[=B,,,=B,,]2 .[B,,,B,,]2 .[B,,,B,,]2 | x6 | z2 =E,2 E,2 | %285
 =B,2 z2 z2 | z2 =B,,2 =B,2 | =E,2 z2 z2 | z2 =E,2 E,2 | =B,2 z2 z2 | =B,4 =E,2 | %291
 [=A,,=A,]2 z2 z2 | z2!p! =A,2 A,2 | =E,2 E,4 | =E,2 E,4 | =A,2 z2 z2 | z2 =A,2 A,2 | x6 | x6 | %299
 x6 | x6 | x6 | x6 | x6 | x6 | x6 | x6 | x6 | x6 | x6 | x6 | x6 | x6 | x6 | x6 | x6 | x6 | x6 | %318
 .F,.A,.F,.D,.B,,.D, | x6 | x6 |[K:treble] x2[K:bass] x4 | z2 E,2 E,2 | B,2 z2 z2 | %324
 z2!p! B,,2 B,2 | x6 | x6 | x6 | x6 | _G,,6- | G,,6 | A,,6 | x6 | x6 | x6 | x6 | x6 | x6 | x6 | %339
 x6 | x6 | x6 | x4 B,,2 | x6 | x6 | x6 | x4 .C,2 | x6 | x6 | x6 | x4 ._D,2 | _D,,2 x4 | x6 | x6 | %354
 x4 .D,2 | x6 |[K:treble] x6 |[K:bass] x6 | x6 | x6 | B,6 | x6 | x6 | x6 | x6 | x6 | x6 | x6 | x6 | %369
 x6 | x6 | x6 | x6 | x6 | x6 | x6 | x6 | x6 | x6 | x6 | x6 | x6 | x6 | x6 | x6 | x6 | x6 | x6 | %388
 x6 | x6 | x6 | x6 | x6 | x6 | x6 | x6 | x6 | E,,2 z2 z2 | x6 | x6 | x6 | ^C,6- | C,6 | =C,6 | %404
 C,6 | C,6- | C,2 C,2 C,2 | x6 | x6 | x6 | x6 | x6 | x6 | x6 | x6 | x6 | x6 | x6 | x6 | x6 | x6 | %421
 x6 | x6 | x6 | x6 | x6 | x6 | x6 | x6 | x6 | x6 | x6 | x6 | x6 | x6 | x6 | x6 | x6 | x6 | x6 | %440
 x6 | x6 | x6 | x6 | x6 | x6 | x6 | x6 | x6 | x6 | x6 | x6 | x6 | x6 | x6 | B,,6- | B,,6- | %457
 B,,2 x4 | x6 |{/E,,} E,6 | E,6 | x6 | x6 | E,6- | E,6 | x6 | x6 | x6 | x6 | x6 | x6 | x6 | x6 | %473
 x6 | x6 | x6 | x6 | x6 | x6 | x6 | x6 | [B,,D,A,B,-] B,- B,4- | B,6 | x6 | x6 | x6 | x6 | x6 | %488
 A,6 | x6 | x6 | z2 z2 .B,,2 | z2 .B,,2 .B,,2 | x6 | x6 | x6 | _D6 | x6 | x2[K:treble] x4 | x6 | %500
 x2[K:bass] x4 | z2 .[B,,,B,,]2 .[B,,,B,,]2 | x6 | x6 | x6 | B,,B,,B,,B,,.B,,.B,, | %506
 .B,,.B,,.B,,.B,,.B,,.B,, | .B,,.B,,.B,,.B,,.B,,.B,, | .B,,.B,,.B,,.B,,.B,,.B,, | x6 | x6 | x6 | %512
 x6 | x6 | x6 | x6 | x6 | x6 | x6 | x6 | x6 | x6 | x6 | x6 | x6 | x6 | x6 | x6 | x6 | x6 | x6 | %531
 x6 | x6 | x6 | x6 | _C,6 | B,,6 | x6 | x6 | x6 | x6 | x6 | A,,2 x4 | F,,2 x4 | x6 | x6 | x6 | x6 | %548
 x6 | x6 | E,6 | x6 | E,6- | E,4 x2 | x6 | x6 | [_D,F,A,]6 | x6 | x6 | x6 | x6 | x6 | C,6- | C,6- | %564
 C,6- | C,6 | C,6- | C,6 | x6 | x6 | x6 | x6 | [_B,,G,]6- | [B,,G,]6 | [A,,F,A,]6- | [A,,F,A,]6 | %576
 x6 | x6 | x6 | z2 C,2 C,2 | F,2 z2 z2 | z2!p! F,2 F,2 | C,2 z2 z2 | C2!p! C4 | [F,F]2 z2 z2 | %585
 z2!p! F,2 F,2 | x6 | x6 | x6 | z2!mf! E,2 E,2 | B,2 z2 z2 | z2!mf! B,,2 B,2 | E,2 z2 z2 | %593
 z2!mf! E,2 E,2 | B,2 z2 z B, | G,2 z2 z G, | A,2 z2 z A, | F,2 z2 z F, | D,2 z2 z D, | %599
 E,2 z2 z E, | C,2 z2 z C, | _C,2 z2 z C, | B,,2 x4 | x6 | x6 | x6 | x6 | x6 | x6 | x6 | x6 | x6 | %612
 x6 | x6 | x6 | x6 | x6 | x6 | x6 | x6 | x6 | x6 | x6 | x6 | x6 | x6 | x6 | x6 | x6 | x6 | %630
 E,!p!B,G,B,G,!p!B, | z!p! G,B,G,B,!p!G, | G,!p!B,[K:treble]E!p!B,G!p!E | x6 | %634
[K:bass] D,!p!F,B,F, A,B, | A,!p!B, A,F, B,!p!B,, | B,!p!D[K:treble] C!p!B, D!p!F | B6 | %638
[K:bass] E,2 z2 z2 | E,2 z2 z2 | x6 | x6 | x6 | x6 | B,,2 z2 z2 | z2 B,,2 B,,2 | x6 | x6 | x6 | %649
 [B,,E,G,]6 | x6 | x6 | x6 | [B,,F,A,]6 | x6 | x6 | x6 | x6 | x6 | x6 | x6 | x6 | x6 | x6 | x6 | %665
 x6 | x6 | x6 | x6 | x6 | x6 | x6 | x6 | E,6 | E,2 x4 | x6 | z E,E,E,E,E, | E,E,E,E,E,E, | x6 | %679
 x6 | x6 | x6 | x6 | x6 | x6 | x6 | x6 | x6 | x6 | x6 | x6 |] %691
V:4
 x6 | x6 | x6 | x6 | x6 | x6 | x6 | x6 | x6 | x6 | x6 | x6 | [Gg][Bb] [Aa][Gg] fe | afgeaf | x6 | %15
 x6 | x6 | x6 | x6 | x6 | x6 | [Aa]4 [=A=a]2 | x6 | x6 | z2 [E_Gc]4 | [ce_g]4 [ceg]2 | [Bdf]2 z4 | %27
 x6 | x2 [DF]4 | [Fd]4 x2 | x2 [EG]4 | [Ge]4 x2 | x6 | x6 | x6 |!8va(! x6 | x!8va)! x5 | x6 | x6 | %39
 x6 | x6 | x6 | x6 | x6 | x6 | x6 | x6 | x6 | x6 | x6 | x6 | x6 | x6 | x6 | x6 | x6 | %56
 [B,D]4 [CE][DF] | [EG]2 [F=A]2 [GB]2 | F3 [FB] [=Ac][Bd] | x6 | x6 | x6 | x6 | x6 | x6 | x6 | x6 | %67
 x6 | x6 | x6 | x6 | x6 | x6 | x6 | x6 | x6 | x6 | x6 | x6 | x6 | x6 | x6 | x6 | %83
 .[Fd]2 [Fd]2 [Fd]2 | [Fd]2 [df]2 [d^f]2 | [dg]4 [cg]2 | x6 | x6 | =A2 A4 | =A4 z2 | z2 _d2 d2 | %91
 x6 | x6 | [_Ge_g]6 | x6 | x6 | z2!p! b2 g2 | f4 .[c=e]2 | .[c_e]2 x4 | x6 | x6 | x6 | x6 | x6 | %104
 x6 | x6 | x6 | x6 | x6 | x6 | x6 | x6 | x6 | x6 | x6 | x6 | x6 | x6 | x6 | x6 | x6 | x6 | x6 | %123
 x6 | x6 | x6 | x6 | x6 | x6 | x6 | x6 | x6 | x6 | x6 | B6- | BBGE z2 | z _AEC z2 | z ECE z2 | %138
 z FDFB^F | G2 E2 [EG]2 | [Gc]2 z [Gc] [F=B][EG] | x6 | x6 | x6 | x6 | x6 | x6 | [Bb]4 [dd']2 | %148
 x6 | x6 | x6 | x6 | x6 | _A,6- | [A,C]6 | [G,=B,]4 x2 | x6 | x6 | [A,C]6 | [G,=B,]2 x4 | x6 | x6 | %162
 x6 | x2 G,2 A,2 | =A,6 | x6 | x6 | x6 | x6 | x6 | x6 | x6 | x6 | x6 | x6 | x6 | x6 | x6 | %178
 x4 z/!ppp! C/E/C/ | x6 | x6 | x6 | x4 z/!pp! ^G,/^C/G,/ | x6 | x6 | x6 | x6 | %187
 x f/g/ .fd/=e/ .d =A/B/ | .=A x5 | x6 | x6 | x6 | x6 | d!pp! .^F.F z z2 | z!pp! .G.G z z2 | x6 | %196
 x6 | x6 | x6 | z B/c/ .BG/=A/ .GD/E/ | DB,/C/ B,G/=A/ BA/G/ | x6 | x6 | x c/d/ c=A/B/ A^F/G/ | %204
 ^F=A/G/ FA/d/ ^f=a/f/ | x6 | x6 | x6 | x6 | x6 | x6 | x6 | x6 | =a.c'.gfa.c' | .b._d'.bfb.d' | %215
 .g.b.geg.b | .a.c'.aea.c' | x6 | x6 | x6 | x6 | x6 | .G.e.f.g.a.b | .c'2 z4 | x6 | x6 | e2 a3 c | %227
 _d2 e3 d | x6 | x6 | [_DE]6 | C!pp! .C._D.E.F!pp!.G | A=D=EFGA | x C[=EG]C[EG]C | [GB] C2 CCC | %235
 C2 x4 | x6 | E/C/[I:staff +1]=B,/C/[I:staff -1] x4 | z E/D/ E!mp!^FG=A | .B z x4 | x6 | x6 | x6 | %243
 x6 | x6 | x6 | x6 | x6 | x6 | x6 | x6 | x6 | x6 | x6 | x6 | x6 | x6 | x6 | x6 | x6 | x6 | x6 | %262
 x6 | x6 | x6 | x6 | x6 | x6 | x6 | x6 | x6 | x6 | x6 | x6 | x6 | x6 | x6 | x6 | x6 | x6 | x6 | %281
 x6 | x6 | x6 | G3 ^F z2 | x6 | ^d4 =e=B | G2 [G=B]2 [=AB]2 | [G=B]3 ^F z2 | x6 | =d=a^g!mp!=f=ed | %291
 c2 =e2 e2 | =e6 | x6 | =e6- | e2 =e2 e2 | =e6 | x6 | x6 | x6 | x6 | x6 | x6 | x6 | x5 g- | g x5 | %306
 x6 | x6 | x5 g | x6 | x6 | x6 | x6 | x6 | x6 | x6 | x5 b- | b x5 | x6 | x6 | x6 | %321
!8va(! z2!8va)! _G2 A2 | _G3 d e2 | x6 | d4 eB | x6 | x6 | x6 | x6 | x2 [_G_g]2 [Aa]2 | %330
 [Bb]3 [Aa] [_G_g]2 | [Ff]6 | [Ff]6 | x6 | x6 | x6 | x6 | B,4 D2 | B,4 d2 | B,2 D2 F2 | %340
 (3B[df]b (3d[fb]d' (3f[bd']f' | B,4 E2 | B,4 e2 | B,2 E2 _G2 | x2 e2 _g2 | C4 E2 | C4 e2 | %347
 C2 E2 _G2 | x2 e2 _g2 | _D4 F2 | _D4 x2 | x2 _D2 F2 | (3_d[fa]_d' (3f[ad']f' (3a[d'f']a' | %353
 =D4 F2 | D4 x2 | B,2 D2 F2 | (3f[ab]f' (3af'a' (3b[f'a']b' | (3z!p! _GB (3GBG (3z GB | E4 _G2 | %359
 (3_GBG (3BGB (3z GB | (3e[_gb]e' (3g[be']_g' (3bg'b' | x6 | x6 | x6 | x6 | [_ce_g]6 | x6 | x6 | %368
 x6 | x6 | x6 | x6 | x6 | x6 | x6 | x6 | x6 | x6 | x6 | x6 | x6 | x6 | x6 | x6 | x6 | x6 | x6 | %387
 x6 | x6 | x6 | x6 | x6 | x6 | x6 | x6 | x6 | x6 | x6 | x6 | x6 | x6 | G6- | G4 z2 | x6 | x6 | x6 | %406
 x6 | F4 =A2 | x6 | CC [CF][CF] [CF=A][CFA] | [CF=A]!p![CFA] [CFA][CFA] [CFA][CFA] | %411
 [=EGB][EGB] [EGB][EGB] [EGB][EGB] | [=EGB]!p![EGB] [EGB][EGB] [EGB][EGB] | [F=A] z z4 | x6 | x6 | %416
 x6 | [FA][FA] [A_d][Ad] [Adf][Adf] | [A_df]!p![Adf] [Adf][Adf] [Adf][Adf] | %419
 [Ae][Ae] [Ae][Ae] [A_g]A | [Ae]!p!A [Ac]A [E_G][EG] | x6 | x6 | x6 | x6 | x6 | x6 | x6 | x6 | x6 | %430
 x6 | x6 | x6 | x6 | x6 | x6 | x6 | x6 | x6 | x6 | x6 | x6 | z2 z2 [=be']/g/[be']/g/ | %443
 [c'e']/g/[c'e']/g/ [c'e']/g/[c'e']/g/ [c'e']/g/[c'e']/g/ | %444
 [c'e']/g/[c'e']/g/ [c'e']/g/[c'e']/g/ [c'=e']/g/[c'e']/g/ | x6 | x6 | x6 | x6 | x6 | x6 | x6 | %452
 x6 | x6 | x6 | x6 | x6 | x6 | x6 | E2 G2 [FA][GB] | [Ac]2 [B=d]2 [ce]2 | B3 e [df][eg] | x6 | x6 | %464
 x6 | x6 | x6 | x6 | x6 | x6 | x6 | x6 | x6 | x6 | x6 | x6 | x6 | x6 | x6 | x6 | x6 | x6 | x6 | %483
 x6 | x6 | x6 | x6 | x6 | [cc']6 | x6 | x6 | D2 D4 | D4 x2 | z2 B2 B2 | x6 | x6 | [_ca_c']6 | %497
 x2[K:bass] x4 | x6 | x2[K:treble] x4 | B4 .=A2 | x6 | x6 | x6 | x6 | x6 | x6 | x6 | x6 | x6 | x6 | %511
 x6 | x6 | x6 | x6 | x6 | x6 | x6 | x6 | x6 | x6 | x6 | x6 | x6 | x6 | x6 | x6 | x6 | x6 | x6 | %530
 x6 | x6 | x6 | x6 | x6 | x6 | x6 | x6 | x6 | x6 | x6 | x6 | x6 | x6 | x6 | x6 | x6 | x6 | x6 | %549
 x6 | x6 | x6 | x6 | x6 | x6 | x6 |!8va(! x6 | x6 | x6 | x6!8va)! | x6 | x6 | x6 |[K:bass] x6 | %564
 x6 | x6 |[K:treble] x6 | x6 | x6 | x6 | x6 | x6 | x6 | x6 | x6 | x6 | x6 | x6 | x6 | x6 | x6 | %581
 c6 | [Gc]2 c4 | c6 | [Ac]2 [Ac]2 [Bc]2 | c4- c_c | B B2 B2 B- | B B2 B2 B- | B2 _G2 A2 | %589
 _G3 d e2 | x6 | d4 ed | _G2 G2 A2 | _G3 x3 | x6 | z e/=d/ .e.e.e.e | e6- | e f/=e/ .f.f.f.f | x6 | %599
 x6 | x6 | x6 | x6 | x6 | F/D/F/D/ F/D/F/D/ F/D/F/D/ | %605
 [FA]/!pp!D/[FA]/D/ [FA]/D/[FA]/D/ _A/D/A/D/ | x6 | x6 | =A/E/A/E/ A/E/A/E/ A/E/A/E/ | %609
 =A/!pp!E/A/E/ A/E/A/E/ A/!pp!E/A/E/ | B/!p!D/B/D/ B/D/B/D/ B/D/B/D/ | %611
 B/!p!D/B/D/ B/D/B/D/ B/!p!D/F/D/ | z/!p! E/B/E/ B/E/B/E/ B/E/B/E/ | %613
 G/!p!E/G/E/ G/!p!E/G/E/ G/!p!E/G/E/ | [ce]/!p!_G/[ce]/G/ [ce]/!p!G/[ce]/G/ [ce]/G/[ce]/G/ | %615
 [ce]/!mp!_G/[ce]/G/ [ce]/!mp!G/[ce]/G/ [ce]/G/[ce]/G/ | e/_G/c/G/ e/!mp!G/e/G/ e/!mp!G/e/G/ | %617
 e/!mp!_G/c/G/ f/!mp!G/c/G/ e/!mp!G/c/G/ | A/!mp!F/A/F/ [df]/!mp!A/[df]/A/ [df]/A/[df]/A/ | %619
 [df]/!mf!A/[df]/A/ [df]/!mf!A/[df]/A/ [df]/A/[df]/A/ | %620
 [df]/!mp!A/[df]/A/ [fa]/!mp!d/[fa]/d/ [fa]/!p!d/[fa]/d/ | d'/!p!f/a/f/ e'/!p!f/a/f/ f'/!p!f/a/f/ | %622
 x6 | x6 | x6 | x6 | x6 | x6 | x6 | x6 | x6 | x6 | x6 | x6 | x4 A2 | x6 | x6 | x6 | x6 | x6 | x6 | %641
 AGF!mp!EDC | x6 | .F!p!B/c/ .dd/e/ .Bf/!mp!g/ | f!p!gf!p!ed!p!c | .B!p!.c.B.A.G.F | x6 | x6 | x6 | %649
 x6 | x6 | x6 | x6 | x4 d2 | x6 | x6 |!8va(! x6 | z2!8va)! .[B,EGB]2 .[B,EGB]2 | x6 | x6 | x6 | %661
 z2 [B,DFB]2 [B,DFB]2 | x6 | x6 | x6 | x6 | x6 | x6 |!8va(! x2!8va)! x4 |!8va(! x2!8va)! x4 | %670
!8va(! x6 | x6!8va)! | x6 | x6 | [Be]3 [Be] [df][eg] | x6 | [Bg] [Ge][Fd][Ge][Af][Bg] | %677
 [ca][db][ec']e[ed'][ec'] | x6 | x6 | x6 | x6 | x6 | x6 | x6 | x6 | x6 | x4!8va(! x2 | %688
 x2!8va)! x4 | x6 | x6 |] %691
V:5
 x6 | x6 | x6 | x6 | x6 | x6 | x6 | x6 | x6 | x6 | x6 | x6 | x6 | x6 | x6 | x6 | x6 | x6 | x6 | %19
 x6 | x6 | x6 | x6 | x6 | x6 | x6 | x6 | x6 | x6 | x6 | x6 | x6 | x6 | x6 | x6 |!8va(! x6 | %36
 x!8va)! x5 | x6 | x6 | x6 | x6 | x6 | x6 | x6 | x6 | x6 | x6 | x6 | x6 | x6 | x6 | x6 | x6 | x6 | %54
 x6 | x6 | x6 | x6 | x6 | x6 | x6 | x6 | x6 | x6 | x6 | x6 | x6 | x6 | x6 | x6 | x6 | x6 | x6 | %73
 x6 | x6 | x6 | x6 | x6 | x6 | x6 | x6 | x6 | x6 | x6 | x6 | x6 | x6 | x6 | x6 | x6 | x6 | x6 | %92
 x6 | x6 | x6 | x6 | [G,_B,]6 | x6 | x6 | x6 | x6 | x6 | x6 | x6 | x6 | x6 | x6 | x6 | x6 | x6 | %110
 x6 | x6 | x6 | x6 | x6 | x6 | x6 | x6 | x6 | x6 | x6 | x6 | x6 | x6 | x6 | x6 | x6 | x6 | x6 | %129
 x6 | x6 | x6 | x6 | x6 | x6 | x6 | x6 | x6 | x6 | x6 | x6 | x6 | x6 | x6 | x6 | x6 | x6 | x6 | %148
 x6 | x6 | x6 | x6 | x6 | x6 | x6 | x6 | x6 | x6 | x6 | x6 | x6 | x6 | x6 | x6 | x6 | x6 | x6 | %167
 x6 | x6 | x6 | x6 | x6 | x6 | x6 | x6 | x6 | x6 | x6 | x6 | x6 | x6 | x6 | x6 | x6 | x6 | x6 | %186
 x6 | x6 | x6 | x6 | x6 | x6 | x6 | x D/_E/D x3 | z D/E/D x3 | x6 | x6 | x6 | x6 | x6 | x6 | x6 | %202
 x6 | x6 | x6 | x6 | x6 | x6 | x6 | x6 | x6 | x6 | x6 | x6 | x6 | x6 | x6 | x6 | x6 | x6 | x6 | %221
 x6 | x6 | x6 | x6 | x6 | x6 | x6 | x6 | x6 | x6 | x6 | x6 | x6 | x6 | x6 | x6 | x6 | x6 | x6 | %240
 x6 | x6 | x6 | x6 | x6 | x6 | x6 | x6 | x6 | x6 | x6 | x6 | x6 | x6 | x6 | x6 | x6 | x6 | x6 | %259
 x6 | x6 | x6 | x6 | x6 | x6 | x6 | x6 | x6 | x6 | x6 | x6 | x6 | x6 | x6 | x6 | x6 | x6 | x6 | %278
 x6 | x6 | x6 | x6 | x6 | x6 | x6 | x6 | x6 | x6 | x6 | x6 | x6 | x6 | x6 | x6 | x6 | x6 | x6 | %297
 x6 | x6 | x6 | x6 | x6 | x6 | x6 | x6 | x6 | x6 | x6 | x6 | x6 | x6 | x6 | x6 | x6 | x6 | x6 | %316
 x6 | x6 | x6 | x6 | x6 |!8va(! x2!8va)! x4 | B2 x x x2 | x6 | x6 | x6 | x6 | x6 | x6 | x6 | x6 | %331
 x6 | x6 | x6 | x6 | x6 | x6 | x6 | B4 x2 | B4 x2 | x6 | x6 | B4 x2 | B4 x2 | x6 | x6 | A4 x2 | %347
 A4 x2 | x6 | x6 | _d4 f2 | d4 x2 | x6 | B6 | B4 f2 | B4 B2 | x6 | x6 | x6 | x6 | x6 | x6 | x6 | %363
 x6 | x6 | x6 | x6 | x6 | x6 | x6 | x6 | x6 | x6 | x6 | x6 | x6 | x6 | x6 | x6 | x6 | x6 | x6 | %382
 x6 | x6 | x6 | x6 | x6 | x6 | x6 | x6 | x6 | x6 | x6 | x6 | x6 | x6 | x6 | x6 | x6 | x6 | x6 | %401
 x6 | x6 | x6 | x6 | x6 | x6 | x6 | x6 | x6 | x6 | x6 | x6 | x6 | x6 | x6 | x6 | x6 | x6 | x6 | %420
 x6 | x6 | x6 | x6 | x6 | x6 | x6 | x6 | x6 | x6 | x6 | x6 | x6 | x6 | x6 | x6 | x6 | x6 | x6 | %439
 x6 | x6 | x6 | x6 | x6 | x6 | x6 | x6 | x6 | x6 | x6 | x6 | x6 | x6 | x6 | x6 | x6 | x6 | x6 | %458
 x6 | x6 | x6 | x6 | x6 | x6 | x6 | x6 | x6 | x6 | x6 | x6 | x6 | x6 | x6 | x6 | x6 | x6 | x6 | %477
 x6 | x6 | x6 | x6 | x6 | x6 | x6 | x6 | x6 | x6 | x6 | x6 | x6 | x6 | x6 | x6 | x6 | x6 | x6 | %496
 x6 | x2[K:bass] x4 | x6 | x2[K:treble] x4 | x6 | x6 | x6 | x6 | x6 | x6 | x6 | x6 | x6 | x6 | x6 | %511
 x6 | x6 | x6 | x6 | x6 | x6 | x6 | x6 | x6 | x6 | x6 | x6 | x6 | x6 | x6 | x6 | x6 | x6 | x6 | %530
 x6 | x6 | x6 | x6 | x6 | x6 | x6 | x6 | x6 | x6 | x6 | x6 | x6 | x6 | x6 | x6 | x6 | x6 | x6 | %549
 x6 | x6 | x6 | x6 | x6 | x6 | x6 |!8va(! x6 | x6 | x6 | x6!8va)! | x6 | x6 | x6 |[K:bass] x6 | %564
 x6 | x6 |[K:treble] x6 | x6 | x6 | x6 | x6 | x6 | x6 | x6 | x6 | x6 | x6 | x6 | x6 | x6 | x6 | %581
 x6 | x6 | x6 | x6 | x6 | x6 | x6 | x6 | x6 | x6 | x6 | x6 | x6 | x6 | x6 | x6 | x6 | x6 | x6 | %600
 x6 | x6 | x6 | x6 | x6 | x6 | x6 | x6 | x6 | x6 | x6 | x6 | x6 | x6 | x6 | x6 | x6 | x6 | x6 | %619
 x6 | x6 | x6 | x6 | x6 | x6 | x6 | x6 | x6 | x6 | x6 | x6 | x6 | x6 | x6 | x6 | x6 | x6 | x6 | %638
 x6 | x6 | x6 | x6 | x6 | x6 | x6 | x6 | x6 | x6 | x6 | x6 | x6 | x6 | x6 | x6 | x6 | x6 | %656
!8va(! x6 | x2!8va)! x4 | x6 | x6 | x6 | x6 | x6 | x6 | x6 | x6 | x6 | x6 |!8va(! x2!8va)! x4 | %669
!8va(! x2!8va)! x4 |!8va(! x6 | x6!8va)! | x6 | x6 | x6 | x6 | x6 | x6 | x6 | x6 | x6 | x6 | x6 | %683
 x6 | x6 | x6 | x6 | x4!8va(! x2 | x2!8va)! x4 | x6 | x6 |] %691

